;FLAVOR:Marlin
;TIME:38095
;Filament used: 41.5764m
;Layer height: 0.28
;MINX:1.862
;MINY:15.135
;MINZ:0.28
;MAXX:233.584
;MAXY:218.449
;MAXZ:12.32
;Generated with Cura_SteamEngine 4.5.0
M140 S50
M105
M190 S50
M104 S200
M105
M109 S200
M82 ;absolute extrusion mode
; Ender 3 Custom Start G-code
G92 E0 ; Reset Extruder
G28 ; Home all axes
G1 Z2.0 F3000 ; Move Z Axis up little to prevent scratching of Heat Bed
G1 X0.1 Y20 Z0.3 F5000.0 ; Move to start position
G1 X0.1 Y200.0 Z0.3 F1500.0 E15 ; Draw the first line
G1 X0.4 Y200.0 Z0.3 F5000.0 ; Move to side a little
G1 X0.4 Y20 Z0.3 F1500.0 E30 ; Draw the second line
G92 E0 ; Reset Extruder
G1 Z2.0 F3000 ; Move Z Axis up little to prevent scratching of Heat Bed
G1 X5 Y20 Z0.3 F5000.0 ; Move over to prevent blob squish
G92 E0
G92 E0
G1 F2700 E-5
;LAYER_COUNT:44
;LAYER:0
M107
;MESH:Cable_Cover_3.stl
G0 F6000 X15.608 Y86.112 Z0.28
;TYPE:WALL-INNER
G1 F2700 E0
G1 F1200 X16.075 Y85.79 E0.02641
G1 X16.479 Y85.391 E0.05285
G1 X16.807 Y84.93 E0.0792
G1 X17.05 Y84.418 E0.10559
G1 X17.201 Y83.871 E0.13201
G1 X17.256 Y83.308 E0.15835
G1 X17.21 Y82.742 E0.18479
G1 X17.067 Y82.193 E0.21121
G1 X16.83 Y81.678 E0.23761
G1 X16.51 Y81.211 E0.26397
G1 X16.111 Y80.807 E0.29041
G1 X15.65 Y80.479 E0.31675
G1 X15.137 Y80.236 E0.34319
G1 X14.591 Y80.085 E0.36956
G1 X14.027 Y80.03 E0.39595
G1 X13.462 Y80.076 E0.42235
G1 X12.913 Y80.219 E0.44876
G1 X12.398 Y80.455 E0.47514
G1 X11.93 Y80.776 E0.50157
G1 X11.526 Y81.175 E0.52801
G1 X11.199 Y81.636 E0.55433
G1 X10.955 Y82.149 E0.58078
G1 X10.805 Y82.695 E0.60714
G1 X10.75 Y83.259 E0.63353
G1 X10.796 Y83.824 E0.65993
G1 X10.939 Y84.372 E0.6863
G1 X11.174 Y84.888 E0.7127
G1 X11.496 Y85.356 E0.73915
G1 X11.895 Y85.76 E0.76559
G1 X12.356 Y86.087 E0.79191
G1 X12.868 Y86.331 E0.81832
G1 X13.415 Y86.481 E0.84473
G1 X13.978 Y86.536 E0.87107
G1 X14.544 Y86.49 E0.89751
G1 X15.092 Y86.347 E0.92388
G1 X15.608 Y86.112 E0.95029
G0 F6000 X15.41 Y85.763
;TYPE:WALL-OUTER
G1 F1200 X15.819 Y85.481 E0.97342
G1 X16.173 Y85.131 E0.9966
G1 X16.461 Y84.727 E1.0197
G1 X16.674 Y84.278 E1.04284
G1 X16.806 Y83.798 E1.06602
G1 X16.854 Y83.305 E1.08909
G1 X16.814 Y82.809 E1.11226
G1 X16.689 Y82.328 E1.1354
G1 X16.481 Y81.876 E1.15857
G1 X16.2 Y81.467 E1.18168
G1 X15.851 Y81.113 E1.20482
G1 X15.447 Y80.825 E1.22793
G1 X14.997 Y80.612 E1.25111
G1 X14.518 Y80.48 E1.27424
G1 X14.024 Y80.432 E1.29735
G1 X13.529 Y80.472 E1.32048
G1 X13.048 Y80.597 E1.34362
G1 X12.596 Y80.804 E1.36677
G1 X12.186 Y81.086 E1.38994
G1 X11.832 Y81.435 E1.41309
G1 X11.545 Y81.839 E1.43616
G1 X11.331 Y82.289 E1.45937
G1 X11.2 Y82.768 E1.48249
G1 X11.152 Y83.262 E1.5056
G1 X11.192 Y83.757 E1.52872
G1 X11.317 Y84.238 E1.55187
G1 X11.523 Y84.69 E1.575
G1 X11.805 Y85.1 E1.59817
G1 X12.155 Y85.454 E1.62135
G1 X12.559 Y85.741 E1.64442
G1 X13.008 Y85.955 E1.66758
G1 X13.488 Y86.086 E1.69075
G1 X13.981 Y86.134 E1.71382
G1 X14.477 Y86.094 E1.73699
G1 X14.958 Y85.969 E1.76013
G1 X15.41 Y85.763 E1.78326
G0 F6000 X15.626 Y86.145
G1 F2700 E-3.21674
G0 F6000 X17.23 Y84.486
G0 X15.86 Y83.977
G0 X57.609 Y69.437
G0 X57.594 Y70.892
G0 X61.009 Y70.238
;TYPE:WALL-INNER
G1 F2700 E1.78326
G1 F1200 X62.1 Y69.868 E1.8369
G1 X63.15 Y69.398 E1.89047
G1 X64.152 Y68.829 E1.94412
G1 X65.095 Y68.169 E1.99772
G1 X65.97 Y67.421 E2.05132
G1 X66.771 Y66.593 E2.10497
G1 X67.489 Y65.693 E2.15858
G1 X68.12 Y64.729 E2.21223
G1 X68.655 Y63.709 E2.26586
G1 X69.09 Y62.644 E2.31943
G1 X69.422 Y61.541 E2.37306
G1 X69.649 Y60.412 E2.42669
G1 X69.767 Y59.267 E2.48028
G1 X69.775 Y58.115 E2.53393
G1 X69.674 Y56.968 E2.58754
G1 X69.465 Y55.836 E2.64114
G1 X69.148 Y54.729 E2.69476
G1 X68.729 Y53.656 E2.7484
G1 X68.208 Y52.628 E2.80206
G1 X67.593 Y51.655 E2.85566
G1 X66.887 Y50.745 E2.90929
G1 X66.098 Y49.906 E2.96292
G1 X65.234 Y49.146 E3.0165
G1 X64.302 Y48.471 E3.07009
G1 X63.308 Y47.887 E3.12377
G1 X62.265 Y47.402 E3.17733
G1 X61.179 Y47.017 E3.23098
G1 X60.062 Y46.737 E3.2846
G1 X58.923 Y46.566 E3.33823
G1 X57.773 Y46.503 E3.39186
G1 X56.623 Y46.549 E3.44546
G1 X55.482 Y46.703 E3.49907
G1 X54.361 Y46.967 E3.55269
G1 X53.27 Y47.336 E3.60632
G1 X52.219 Y47.806 E3.65993
G1 X51.217 Y48.376 E3.71361
G1 X50.274 Y49.036 E3.76721
G1 X49.399 Y49.783 E3.82078
G1 X48.598 Y50.612 E3.87446
G1 X47.88 Y51.511 E3.92803
G1 X47.25 Y52.476 E3.98169
G1 X46.714 Y53.495 E4.0353
G1 X46.279 Y54.561 E4.08892
G1 X45.947 Y55.663 E4.14251
G1 X45.72 Y56.792 E4.19613
G1 X45.602 Y57.938 E4.24977
G1 X45.594 Y59.089 E4.30337
G1 X45.695 Y60.237 E4.35703
G1 X45.904 Y61.369 E4.41064
G1 X46.221 Y62.476 E4.46425
G1 X46.641 Y63.549 E4.51791
G1 X47.162 Y64.576 E4.57153
G1 X47.776 Y65.549 E4.6251
G1 X48.482 Y66.459 E4.67874
G1 X49.27 Y67.299 E4.73237
G1 X50.135 Y68.059 E4.78598
G1 X51.069 Y68.734 E4.83964
G1 X52.061 Y69.317 E4.89322
G1 X53.105 Y69.803 E4.94684
G1 X54.19 Y70.187 E5.00044
G1 X55.308 Y70.467 E5.0541
G1 X56.446 Y70.639 E5.10769
G1 X57.596 Y70.702 E5.16132
G1 X58.747 Y70.656 E5.21496
G1 X59.887 Y70.501 E5.26853
G1 X61.009 Y70.238 E5.32219
G0 F6000 X60.899 Y69.853
;TYPE:WALL-OUTER
G1 F1200 X61.954 Y69.495 E5.37407
G1 X62.969 Y69.041 E5.42585
G1 X63.938 Y68.491 E5.47773
G1 X64.85 Y67.852 E5.52958
G1 X65.696 Y67.129 E5.5814
G1 X66.47 Y66.329 E5.63323
G1 X67.165 Y65.458 E5.68512
G1 X67.775 Y64.526 E5.73699
G1 X68.292 Y63.54 E5.78883
G1 X68.713 Y62.51 E5.84064
G1 X69.034 Y61.444 E5.89248
G1 X69.253 Y60.352 E5.94434
G1 X69.367 Y59.245 E5.99616
G1 X69.375 Y58.131 E6.04803
G1 X69.277 Y57.022 E6.09987
G1 X69.075 Y55.927 E6.15172
G1 X68.769 Y54.857 E6.20354
G1 X68.363 Y53.82 E6.2554
G1 X67.86 Y52.826 E6.30727
G1 X67.265 Y51.885 E6.35911
G1 X66.583 Y51.005 E6.41095
G1 X65.82 Y50.194 E6.4628
G1 X64.984 Y49.459 E6.51464
G1 X64.083 Y48.806 E6.56645
G1 X63.122 Y48.242 E6.61834
G1 X62.113 Y47.773 E6.67015
G1 X61.063 Y47.4 E6.72203
G1 X59.983 Y47.13 E6.77387
G1 X58.882 Y46.964 E6.82572
G1 X57.77 Y46.903 E6.87757
G1 X56.658 Y46.948 E6.9294
G1 X55.555 Y47.097 E6.98122
G1 X54.471 Y47.352 E7.03308
G1 X53.416 Y47.709 E7.08494
G1 X52.4 Y48.163 E7.13676
G1 X51.431 Y48.714 E7.18866
G1 X50.519 Y49.353 E7.24051
G1 X49.673 Y50.075 E7.2923
G1 X48.899 Y50.876 E7.34417
G1 X48.204 Y51.746 E7.39602
G1 X47.595 Y52.679 E7.4479
G1 X47.077 Y53.664 E7.49972
G1 X46.656 Y54.695 E7.55158
G1 X46.335 Y55.76 E7.60337
G1 X46.116 Y56.852 E7.65523
G1 X46.002 Y57.96 E7.7071
G1 X45.994 Y59.073 E7.75892
G1 X46.092 Y60.183 E7.81081
G1 X46.294 Y61.278 E7.86266
G1 X46.6 Y62.348 E7.91448
G1 X47.006 Y63.385 E7.96634
G1 X47.51 Y64.378 E8.01819
G1 X48.104 Y65.319 E8.07001
G1 X48.787 Y66.199 E8.12188
G1 X49.549 Y67.011 E8.17373
G1 X50.385 Y67.746 E8.22556
G1 X51.288 Y68.399 E8.27745
G1 X52.247 Y68.962 E8.32923
G1 X53.257 Y69.432 E8.3811
G1 X54.306 Y69.804 E8.43293
G1 X55.387 Y70.074 E8.48481
G1 X56.487 Y70.241 E8.53662
G1 X57.599 Y70.302 E8.58848
G1 X58.712 Y70.257 E8.64035
G1 X59.814 Y70.107 E8.69213
G1 X60.899 Y69.853 E8.74402
G0 F6000 X61.019 Y70.276
G1 F2700 E3.74402
G0 F6000 X63.236 Y69.569
G0 X62.572 Y68.272
G0 X114.783 Y64.105
G0 X114.057 Y65.37
G0 X117.631 Y66.142
;TYPE:WALL-INNER
G1 F2700 E8.74402
G1 F1200 X118.539 Y66.091 E8.78637
G1 X119.434 Y65.923 E8.82877
G1 X120.3 Y65.643 E8.87115
G1 X121.122 Y65.254 E8.9135
G1 X121.888 Y64.764 E8.95584
G1 X122.586 Y64.179 E8.99825
G1 X123.202 Y63.509 E9.04063
G1 X123.729 Y62.767 E9.083
G1 X124.155 Y61.963 E9.12537
G1 X124.476 Y61.111 E9.16777
G1 X124.685 Y60.226 E9.21011
G1 X124.779 Y59.321 E9.25248
G1 X124.756 Y58.411 E9.29486
G1 X124.617 Y57.512 E9.33722
G1 X124.365 Y56.637 E9.37962
G1 X124.003 Y55.803 E9.42196
G1 X123.536 Y55.022 E9.46433
G1 X122.975 Y54.306 E9.50668
G1 X122.326 Y53.668 E9.54906
G1 X121.601 Y53.119 E9.59141
G1 X120.81 Y52.666 E9.63385
G1 X119.969 Y52.318 E9.67623
G1 X119.092 Y52.082 E9.71852
G1 X118.19 Y51.958 E9.76092
G1 X117.28 Y51.952 E9.80329
G1 X116.376 Y52.061 E9.84569
G1 X115.494 Y52.286 E9.88808
G1 X114.649 Y52.622 E9.93042
G1 X113.853 Y53.061 E9.97275
G1 X113.119 Y53.6 E10.01515
G1 X112.461 Y54.228 E10.05751
G1 X111.888 Y54.936 E10.09992
G1 X111.411 Y55.711 E10.14229
G1 X111.037 Y56.54 E10.18464
G1 X110.772 Y57.411 E10.22703
G1 X110.62 Y58.308 E10.2694
G1 X110.584 Y59.217 E10.31176
G1 X110.665 Y60.124 E10.35416
G1 X110.86 Y61.012 E10.39649
G1 X111.168 Y61.869 E10.4389
G1 X111.584 Y62.678 E10.48126
G1 X112.099 Y63.429 E10.52366
G1 X112.705 Y64.106 E10.56597
G1 X113.394 Y64.701 E10.60836
G1 X114.153 Y65.204 E10.65076
G1 X114.97 Y65.603 E10.69309
G1 X115.831 Y65.897 E10.73546
G1 X116.724 Y66.078 E10.77789
G1 X117.631 Y66.142 E10.82022
G0 F6000 X117.634 Y65.741
;TYPE:WALL-OUTER
G1 F1200 X118.491 Y65.693 E10.86019
G1 X119.335 Y65.535 E10.90017
G1 X120.152 Y65.27 E10.94017
G1 X120.928 Y64.903 E10.98014
G1 X121.651 Y64.441 E11.02009
G1 X122.309 Y63.889 E11.06009
G1 X122.891 Y63.257 E11.10009
G1 X123.388 Y62.557 E11.14007
G1 X123.79 Y61.798 E11.18006
G1 X124.093 Y60.994 E11.22007
G1 X124.29 Y60.159 E11.26002
G1 X124.378 Y59.305 E11.29999
G1 X124.357 Y58.447 E11.33996
G1 X124.226 Y57.598 E11.37996
G1 X123.988 Y56.773 E11.41994
G1 X123.646 Y55.986 E11.4599
G1 X123.206 Y55.249 E11.49986
G1 X122.676 Y54.573 E11.53986
G1 X122.064 Y53.971 E11.57984
G1 X121.38 Y53.453 E11.61979
G1 X120.634 Y53.026 E11.65981
G1 X119.84 Y52.698 E11.69982
G1 X119.012 Y52.475 E11.73974
G1 X118.161 Y52.358 E11.77974
G1 X117.303 Y52.352 E11.8197
G1 X116.45 Y52.455 E11.8597
G1 X115.618 Y52.667 E11.89968
G1 X114.82 Y52.984 E11.93967
G1 X114.069 Y53.399 E11.97962
G1 X113.377 Y53.907 E12.01959
G1 X112.756 Y54.5 E12.05958
G1 X112.215 Y55.168 E12.0996
G1 X111.765 Y55.899 E12.13957
G1 X111.412 Y56.681 E12.17952
G1 X111.162 Y57.503 E12.21953
G1 X111.019 Y58.349 E12.25948
G1 X110.985 Y59.207 E12.29947
G1 X111.061 Y60.063 E12.33948
G1 X111.245 Y60.901 E12.37943
G1 X111.536 Y61.709 E12.41942
G1 X111.928 Y62.473 E12.45941
G1 X112.414 Y63.181 E12.49939
G1 X112.986 Y63.82 E12.53933
G1 X113.636 Y64.382 E12.57934
G1 X114.352 Y64.856 E12.61932
G1 X115.123 Y65.233 E12.65929
G1 X115.936 Y65.51 E12.69928
G1 X116.778 Y65.681 E12.73929
G1 X117.634 Y65.741 E12.77924
G0 F6000 X117.631 Y66.181
G1 F2700 E7.77924
G0 F6000 X120.371 Y65.821
G0 X119.831 Y64.466
G0 X171.148 Y70.237
G0 X170.391 Y71.481
G0 X172.72 Y72.412
;TYPE:WALL-INNER
G1 F2700 E12.77924
G1 F1200 X173.899 Y72.805 E12.83711
G1 X175.109 Y73.09 E12.895
G1 X176.339 Y73.266 E12.95285
G1 X177.579 Y73.33 E13.01067
G1 X178.821 Y73.285 E13.06854
G1 X180.055 Y73.126 E13.12648
G1 X181.269 Y72.859 E13.18436
G1 X182.453 Y72.483 E13.2422
G1 X183.6 Y72.003 E13.3001
G1 X184.698 Y71.422 E13.35794
G1 X185.74 Y70.746 E13.41578
G1 X186.718 Y69.977 E13.47371
G1 X187.622 Y69.125 E13.53155
G1 X188.447 Y68.195 E13.58944
G1 X189.185 Y67.196 E13.64728
G1 X189.83 Y66.133 E13.70517
G1 X190.378 Y65.017 E13.76307
G1 X190.823 Y63.856 E13.82096
G1 X191.162 Y62.661 E13.8788
G1 X191.392 Y61.44 E13.93666
G1 X191.513 Y60.203 E13.99453
G1 X191.522 Y58.96 E14.05241
G1 X191.42 Y57.722 E14.11025
G1 X191.206 Y56.498 E14.16811
G1 X190.885 Y55.297 E14.226
G1 X190.457 Y54.13 E14.28388
G1 X189.926 Y53.006 E14.34176
G1 X189.297 Y51.935 E14.3996
G1 X188.573 Y50.924 E14.4575
G1 X187.762 Y49.982 E14.51538
G1 X186.871 Y49.116 E14.57324
G1 X185.905 Y48.335 E14.63108
G1 X184.872 Y47.643 E14.68898
G1 X183.782 Y47.046 E14.74685
G1 X182.643 Y46.549 E14.80471
G1 X181.464 Y46.156 E14.86258
G1 X180.254 Y45.871 E14.92047
G1 X179.024 Y45.695 E14.97832
G1 X177.782 Y45.631 E15.03623
G1 X176.54 Y45.677 E15.09411
G1 X175.308 Y45.836 E15.15195
G1 X174.094 Y46.103 E15.20983
G1 X172.91 Y46.478 E15.26766
G1 X171.763 Y46.958 E15.32556
G1 X170.665 Y47.539 E15.3834
G1 X169.623 Y48.215 E15.44124
G1 X168.645 Y48.984 E15.49917
G1 X167.741 Y49.836 E15.55701
G1 X166.916 Y50.766 E15.6149
G1 X166.178 Y51.765 E15.67273
G1 X165.533 Y52.829 E15.73067
G1 X164.986 Y53.944 E15.7885
G1 X164.54 Y55.104 E15.84637
G1 X164.2 Y56.3 E15.90427
G1 X163.971 Y57.521 E15.96211
G1 X163.849 Y58.758 E16.01999
G1 X163.841 Y60.001 E16.07787
G1 X163.943 Y61.239 E16.13572
G1 X164.155 Y62.463 E16.19356
G1 X164.477 Y63.664 E16.25146
G1 X164.906 Y64.831 E16.30935
G1 X165.437 Y65.955 E16.36724
G1 X166.066 Y67.026 E16.42507
G1 X166.79 Y68.037 E16.48298
G1 X167.601 Y68.979 E16.54086
G1 X168.492 Y69.845 E16.59871
G1 X169.458 Y70.626 E16.65656
G1 X170.49 Y71.318 E16.71441
G1 X171.581 Y71.915 E16.77232
G1 X172.72 Y72.412 E16.83019
G0 F6000 X172.863 Y72.038
;TYPE:WALL-OUTER
G1 F1200 X174.008 Y72.42 E16.88639
G1 X175.183 Y72.697 E16.94261
G1 X176.378 Y72.867 E16.99881
G1 X177.582 Y72.93 E17.05495
G1 X178.788 Y72.886 E17.11114
G1 X179.986 Y72.732 E17.16739
G1 X181.165 Y72.472 E17.22361
G1 X182.315 Y72.107 E17.27979
G1 X183.429 Y71.641 E17.33601
G1 X184.495 Y71.077 E17.39217
G1 X185.507 Y70.42 E17.44835
G1 X186.457 Y69.674 E17.5046
G1 X187.335 Y68.846 E17.56079
G1 X188.136 Y67.943 E17.617
G1 X188.852 Y66.973 E17.67314
G1 X189.479 Y65.941 E17.72937
G1 X190.011 Y64.857 E17.78559
G1 X190.443 Y63.73 E17.8418
G1 X190.772 Y62.569 E17.89799
G1 X190.996 Y61.383 E17.95419
G1 X191.113 Y60.182 E18.01038
G1 X191.122 Y58.975 E18.06658
G1 X191.023 Y57.773 E18.12274
G1 X190.815 Y56.584 E18.17895
G1 X190.503 Y55.418 E18.23515
G1 X190.088 Y54.285 E18.29133
G1 X189.572 Y53.193 E18.34757
G1 X188.961 Y52.153 E18.40374
G1 X188.258 Y51.171 E18.45997
G1 X187.471 Y50.257 E18.51614
G1 X186.605 Y49.416 E18.57235
G1 X185.667 Y48.657 E18.62853
G1 X184.664 Y47.985 E18.68475
G1 X183.606 Y47.405 E18.74093
G1 X182.5 Y46.923 E18.79711
G1 X181.355 Y46.541 E18.85332
G1 X180.18 Y46.264 E18.90953
G1 X178.985 Y46.094 E18.96573
G1 X177.779 Y46.031 E19.02197
G1 X176.573 Y46.076 E19.07816
G1 X175.377 Y46.23 E19.13431
G1 X174.198 Y46.49 E19.19053
G1 X173.048 Y46.854 E19.2467
G1 X171.934 Y47.32 E19.30293
G1 X170.868 Y47.884 E19.35908
G1 X169.856 Y48.541 E19.41526
G1 X168.906 Y49.287 E19.47151
G1 X168.028 Y50.115 E19.5277
G1 X167.227 Y51.018 E19.58391
G1 X166.511 Y51.988 E19.64005
G1 X165.884 Y53.021 E19.69632
G1 X165.353 Y54.104 E19.75248
G1 X164.92 Y55.231 E19.8087
G1 X164.59 Y56.392 E19.8649
G1 X164.367 Y57.578 E19.9211
G1 X164.249 Y58.779 E19.97729
G1 X164.241 Y59.986 E20.03349
G1 X164.34 Y61.188 E20.08965
G1 X164.546 Y62.377 E20.14584
G1 X164.859 Y63.543 E20.20206
G1 X165.275 Y64.676 E20.25826
G1 X165.791 Y65.768 E20.3145
G1 X166.402 Y66.808 E20.37066
G1 X167.105 Y67.79 E20.4269
G1 X167.892 Y68.704 E20.48306
G1 X168.758 Y69.545 E20.53927
G1 X169.696 Y70.304 E20.59546
G1 X170.698 Y70.976 E20.65164
G1 X171.757 Y71.556 E20.70786
G1 X172.863 Y72.038 E20.76404
G0 F6000 X172.706 Y72.448
G1 F2700 E15.76404
G0 F6000 X177.577 Y73.52
G0 X177.583 Y72.064
G0 X219.128 Y85.462
G0 X217.752 Y85.953
G0 X219.35 Y87.603
;TYPE:WALL-INNER
G1 F2700 E20.76404
G1 F1200 X219.863 Y87.846 E20.79047
G1 X220.409 Y87.997 E20.81685
G1 X220.974 Y88.051 E20.84328
G1 X221.538 Y88.005 E20.86963
G1 X222.086 Y87.862 E20.896
G1 X222.602 Y87.627 E20.9224
G1 X223.07 Y87.306 E20.94882
G1 X223.474 Y86.907 E20.97526
G1 X223.801 Y86.445 E21.00162
G1 X224.045 Y85.933 E21.02803
G1 X224.195 Y85.387 E21.0544
G1 X224.25 Y84.823 E21.08078
G1 X224.204 Y84.257 E21.10723
G1 X224.061 Y83.709 E21.1336
G1 X223.826 Y83.193 E21.16
G1 X223.504 Y82.726 E21.18641
G1 X223.105 Y82.322 E21.21285
G1 X222.644 Y81.994 E21.2392
G1 X222.132 Y81.751 E21.26559
G1 X221.585 Y81.6 E21.29201
G1 X221.022 Y81.545 E21.31835
G1 X220.455 Y81.591 E21.34484
G1 X219.907 Y81.735 E21.37122
G1 X219.392 Y81.97 E21.39758
G1 X218.925 Y82.292 E21.424
G1 X218.521 Y82.69 E21.4504
G1 X218.193 Y83.152 E21.47679
G1 X217.95 Y83.664 E21.50318
G1 X217.799 Y84.21 E21.52955
G1 X217.744 Y84.774 E21.55594
G1 X217.79 Y85.339 E21.58234
G1 X217.933 Y85.888 E21.60875
G1 X218.169 Y86.403 E21.63513
G1 X218.49 Y86.871 E21.66156
G1 X218.889 Y87.275 E21.688
G1 X219.35 Y87.603 E21.71434
G0 F6000 X219.553 Y87.257
;TYPE:WALL-OUTER
G1 F1200 X220.003 Y87.47 E21.73752
G1 X220.482 Y87.602 E21.76066
G1 X220.977 Y87.649 E21.78381
G1 X221.471 Y87.609 E21.80689
G1 X221.952 Y87.484 E21.83003
G1 X222.404 Y87.278 E21.85316
G1 X222.814 Y86.996 E21.87633
G1 X223.168 Y86.647 E21.89948
G1 X223.455 Y86.242 E21.92259
G1 X223.669 Y85.793 E21.94576
G1 X223.8 Y85.314 E21.96888
G1 X223.848 Y84.82 E21.99199
