;FLAVOR:Marlin
;TIME:17067
;Filament used: 29.0363m
;Layer height: 0.28
;MINX:1.835
;MINY:46.585
;MINZ:0.28
;MAXX:233.165
;MAXY:182.915
;MAXZ:5.32
;Generated with Cura_SteamEngine 4.5.0
M140 S50
M105
M190 S50
M104 S200
M105
M109 S200
M82 ;absolute extrusion mode
; Ender 3 Custom Start G-code
G92 E0 ; Reset Extruder
G28 ; Home all axes
G1 Z2.0 F3000 ; Move Z Axis up little to prevent scratching of Heat Bed
G1 X0.1 Y20 Z0.3 F5000.0 ; Move to start position
G1 X0.1 Y200.0 Z0.3 F1500.0 E15 ; Draw the first line
G1 X0.4 Y200.0 Z0.3 F5000.0 ; Move to side a little
G1 X0.4 Y20 Z0.3 F1500.0 E30 ; Draw the second line
G92 E0 ; Reset Extruder
G1 Z2.0 F3000 ; Move Z Axis up little to prevent scratching of Heat Bed
G1 X5 Y20 Z0.3 F5000.0 ; Move over to prevent blob squish
G92 E0
G92 E0
G1 F2700 E-5
;LAYER_COUNT:19
;LAYER:0
M107
;MESH:Cable_Cover_3.stl
G0 F9000 X10.559 Y113.533 Z0.28
;TYPE:WALL-INNER
G1 F2700 E0
G1 F1800 X10.402 Y114.115 E0.02807
G1 X10.345 Y114.75 E0.05776
G1 X10.402 Y115.385 E0.08744
G1 X10.567 Y116 E0.11709
G1 X10.835 Y116.577 E0.14672
G1 X11.2 Y117.098 E0.17634
G1 X11.652 Y117.55 E0.2061
G1 X12.173 Y117.915 E0.23572
G1 X12.75 Y118.183 E0.26535
G1 X12.783 Y118.191 E0.26693
G1 X13.365 Y118.348 E0.295
G1 X14 Y118.405 E0.32469
G1 X14.635 Y118.348 E0.35437
G1 X15.25 Y118.183 E0.38402
G1 X15.827 Y117.915 E0.41365
G1 X16.348 Y117.55 E0.44327
G1 X16.8 Y117.098 E0.47303
G1 X17.165 Y116.577 E0.50265
G1 X17.433 Y116 E0.53228
G1 X17.441 Y115.967 E0.53386
G1 X17.598 Y115.385 E0.56193
G1 X17.655 Y114.75 E0.59162
G1 X17.598 Y114.115 E0.6213
G1 X17.433 Y113.5 E0.65095
G1 X17.165 Y112.923 E0.68058
G1 X16.8 Y112.402 E0.7102
G1 X16.348 Y111.95 E0.73996
G1 X15.827 Y111.585 E0.76958
G1 X15.25 Y111.317 E0.79921
G1 X15.217 Y111.309 E0.80079
G1 X14.635 Y111.152 E0.82886
G1 X14 Y111.095 E0.85855
G1 X13.365 Y111.152 E0.88823
G1 X12.75 Y111.317 E0.91788
G1 X12.173 Y111.585 E0.94751
G1 X11.652 Y111.95 E0.97713
G1 X11.2 Y112.402 E1.00689
G1 X10.835 Y112.923 E1.03651
G1 X10.567 Y113.5 E1.06614
G1 X10.559 Y113.533 E1.06772
G0 F9000 X10.944 Y113.637
G1 F1800 X10.797 Y114.185 E1.09414
G1 X10.747 Y114.75 E1.12055
G1 X10.797 Y115.315 E1.14696
G1 X10.944 Y115.863 E1.17338
G1 X11.183 Y116.376 E1.19973
G1 X11.508 Y116.84 E1.22611
G1 X11.91 Y117.242 E1.25258
G1 X12.374 Y117.567 E1.27896
G1 X12.887 Y117.806 E1.30532
G1 X13.435 Y117.953 E1.33173
G1 X14 Y118.003 E1.35815
G1 X14.565 Y117.953 E1.38456
G1 X15.113 Y117.806 E1.41098
G1 X15.626 Y117.567 E1.43733
G1 X16.09 Y117.242 E1.46371
G1 X16.492 Y116.84 E1.49018
G1 X16.817 Y116.376 E1.51656
G1 X17.056 Y115.863 E1.54291
G1 X17.203 Y115.315 E1.56933
G1 X17.253 Y114.75 E1.59574
G1 X17.203 Y114.185 E1.62215
G1 X17.056 Y113.637 E1.64857
G1 X16.817 Y113.124 E1.67493
G1 X16.492 Y112.66 E1.70131
G1 X16.09 Y112.258 E1.72778
G1 X15.626 Y111.933 E1.75416
G1 X15.113 Y111.694 E1.78051
G1 X14.565 Y111.547 E1.80693
G1 X14 Y111.497 E1.83334
G1 X13.435 Y111.547 E1.85975
G1 X12.887 Y111.694 E1.88617
G1 X12.374 Y111.933 E1.91252
G1 X11.91 Y112.258 E1.9389
G1 X11.508 Y112.66 E1.96537
G1 X11.183 Y113.124 E1.99175
G1 X10.944 Y113.637 E2.01811
G0 F9000 X11.321 Y113.775
;TYPE:WALL-OUTER
G1 F1800 X11.192 Y114.255 E2.04125
G1 X11.149 Y114.75 E2.06439
G1 X11.192 Y115.245 E2.08752
G1 X11.321 Y115.725 E2.11067
G1 X11.531 Y116.175 E2.13379
G1 X11.816 Y116.582 E2.15692
G1 X12.168 Y116.934 E2.1801
G1 X12.575 Y117.219 E2.20324
G1 X13.025 Y117.429 E2.22636
G1 X13.505 Y117.558 E2.24951
G1 X14 Y117.601 E2.27264
G1 X14.495 Y117.558 E2.29578
G1 X14.975 Y117.429 E2.31892
G1 X15.425 Y117.219 E2.34205
G1 X15.832 Y116.934 E2.36518
G1 X16.184 Y116.582 E2.38836
G1 X16.469 Y116.175 E2.4115
G1 X16.679 Y115.725 E2.43462
G1 X16.808 Y115.245 E2.45777
G1 X16.851 Y114.75 E2.4809
G1 X16.808 Y114.255 E2.50404
G1 X16.679 Y113.775 E2.52718
G1 X16.469 Y113.325 E2.55031
G1 X16.184 Y112.918 E2.57344
G1 X15.832 Y112.566 E2.59662
G1 X15.425 Y112.281 E2.61976
G1 X14.975 Y112.071 E2.64288
G1 X14.495 Y111.942 E2.66602
G1 X14 Y111.899 E2.68916
G1 X13.505 Y111.942 E2.7123
G1 X13.025 Y112.071 E2.73544
G1 X12.575 Y112.281 E2.75856
G1 X12.168 Y112.566 E2.7817
G1 X11.816 Y112.918 E2.80488
G1 X11.531 Y113.325 E2.82802
G1 X11.321 Y113.775 E2.85114
G0 F9000 X10.908 Y113.625
G1 F2700 E-2.14886
G0 F9000 X12.014 Y112.382
G0 X12.455 Y112.073
G0 X12.943 Y111.845
G0 X13.464 Y111.705
G0 X14 Y111.658
G0 X14.303 Y111.683
G0 X16.946 Y112.278
G0 X15.518 Y113.474
G0 X49.223 Y99.23
G0 X47.999 Y100.626
G0 X52.69 Y102.566
G0 X53.859 Y102.947
G0 X55.055 Y103.22
G0 X56.273 Y103.384
G0 X57.5 Y103.44
G0 X58.727 Y103.384
G0 X59.945 Y103.22
G0 X61.141 Y102.947
G0 X62.31 Y102.566
G0 X63.44 Y102.084
G0 X64.522 Y101.502
G0 X65.547 Y100.825
G0 X66.508 Y100.06
G0 X67.395 Y99.21
G0 X68.204 Y98.285
G0 X68.925 Y97.291
G0 X71.393 Y92.921
;TYPE:WALL-INNER
G1 F2700 E2.85114
G1 F1800 X71.622 Y91.664 E2.91063
G1 X71.737 Y90.389 E2.97024
G1 X71.737 Y89.111 E3.02975
G1 X71.622 Y87.836 E3.08936
G1 X71.393 Y86.579 E3.14886
G1 X71.053 Y85.346 E3.20841
G1 X70.604 Y84.149 E3.26794
G1 X70.05 Y82.996 E3.32751
G1 X69.393 Y81.899 E3.38705
G1 X68.642 Y80.864 E3.44659
G1 X67.8 Y79.901 E3.50616
G1 X66.876 Y79.017 E3.5657
G1 X65.876 Y78.221 E3.62522
G1 X64.809 Y77.516 E3.68477
G1 X63.684 Y76.91 E3.74427
G1 X62.508 Y76.408 E3.80381
G1 X61.292 Y76.012 E3.86336
G1 X60.044 Y75.728 E3.92296
G1 X58.778 Y75.556 E3.98245
G1 X57.5 Y75.5 E4.04201
G1 X56.222 Y75.556 E4.10158
G1 X54.956 Y75.728 E4.16107
G1 X53.708 Y76.012 E4.22067
G1 X52.492 Y76.408 E4.28022
G1 X51.316 Y76.91 E4.33976
G1 X50.191 Y77.516 E4.39926
G1 X49.124 Y78.221 E4.45881
G1 X48.124 Y79.017 E4.51832
G1 X47.2 Y79.901 E4.57787
G1 X46.358 Y80.864 E4.63743
G1 X45.607 Y81.899 E4.69698
G1 X44.95 Y82.996 E4.75652
G1 X44.396 Y84.149 E4.81608
G1 X43.946 Y85.346 E4.87563
G1 X43.607 Y86.579 E4.93517
G1 X43.378 Y87.836 E4.99467
G1 X43.263 Y89.111 E5.05428
G1 X43.263 Y90.389 E5.11379
G1 X43.378 Y91.664 E5.1734
G1 X43.607 Y92.921 E5.23289
G1 X43.946 Y94.154 E5.29244
G1 X44.396 Y95.351 E5.35198
G1 X44.95 Y96.504 E5.41155
G1 X45.607 Y97.601 E5.47109
G1 X46.358 Y98.636 E5.53063
G1 X47.2 Y99.599 E5.5902
G1 X48.124 Y100.483 E5.64974
G1 X49.124 Y101.279 E5.70926
G1 X50.191 Y101.984 E5.76881
G1 X51.316 Y102.59 E5.82831
G1 X52.492 Y103.092 E5.88785
G1 X53.708 Y103.488 E5.9474
G1 X54.956 Y103.772 E6.00699
G1 X56.222 Y103.944 E6.06649
G1 X57.5 Y104 E6.12605
G1 X58.778 Y103.944 E6.18562
G1 X60.044 Y103.772 E6.24511
G1 X61.292 Y103.488 E6.30471
G1 X62.508 Y103.092 E6.36426
G1 X63.684 Y102.59 E6.4238
G1 X64.809 Y101.984 E6.4833
G1 X65.876 Y101.279 E6.54285
G1 X66.876 Y100.483 E6.60236
G1 X67.8 Y99.599 E6.66191
G1 X68.642 Y98.636 E6.72147
G1 X69.393 Y97.601 E6.78102
G1 X70.05 Y96.504 E6.84056
G1 X70.604 Y95.351 E6.90012
G1 X71.053 Y94.154 E6.95965
G1 X71.393 Y92.921 E7.01921
G0 F9000 X71.003 Y92.832
G1 F1800 X71.225 Y91.61 E7.07704
G1 X71.337 Y90.371 E7.13497
G1 X71.337 Y89.129 E7.1928
G1 X71.225 Y87.89 E7.25073
G1 X71.003 Y86.668 E7.30856
G1 X70.672 Y85.47 E7.36644
G1 X70.236 Y84.306 E7.42431
G1 X69.697 Y83.186 E7.48219
G1 X69.059 Y82.12 E7.54004
G1 X68.329 Y81.114 E7.59792
G1 X67.511 Y80.178 E7.6558
G1 X66.613 Y79.319 E7.71366
G1 X65.641 Y78.545 E7.77152
G1 X64.604 Y77.86 E7.82939
G1 X63.51 Y77.271 E7.88725
G1 X62.367 Y76.783 E7.94512
G1 X61.185 Y76.398 E8.003
G1 X59.973 Y76.122 E8.06088
G1 X58.742 Y75.955 E8.11873
G1 X57.5 Y75.9 E8.17662
G1 X56.258 Y75.955 E8.23451
G1 X55.027 Y76.122 E8.29235
G1 X53.815 Y76.398 E8.35023
G1 X52.633 Y76.783 E8.40812
G1 X51.49 Y77.271 E8.46599
G1 X50.396 Y77.86 E8.52385
G1 X49.359 Y78.545 E8.58172
G1 X48.387 Y79.319 E8.63957
G1 X47.489 Y80.178 E8.69744
G1 X46.671 Y81.114 E8.75532
G1 X45.941 Y82.12 E8.8132
G1 X45.303 Y83.186 E8.87105
G1 X44.764 Y84.306 E8.92892
G1 X44.327 Y85.47 E8.98682
G1 X43.997 Y86.668 E9.04468
G1 X43.775 Y87.89 E9.10251
G1 X43.663 Y89.129 E9.16044
G1 X43.663 Y90.371 E9.21827
G1 X43.775 Y91.61 E9.2762
G1 X43.997 Y92.832 E9.33403
G1 X44.327 Y94.03 E9.3919
G1 X44.764 Y95.194 E9.44979
G1 X45.303 Y96.314 E9.50767
G1 X45.941 Y97.38 E9.56552
G1 X46.671 Y98.386 E9.62339
G1 X47.489 Y99.322 E9.68127
G1 X48.387 Y100.181 E9.73914
G1 X49.359 Y100.955 E9.797
G1 X50.396 Y101.64 E9.85487
G1 X51.49 Y102.229 E9.91272
G1 X52.633 Y102.717 E9.97059
G1 X53.815 Y103.102 E10.02848
G1 X55.027 Y103.378 E10.08636
G1 X56.258 Y103.545 E10.1442
G1 X57.5 Y103.6 E10.20209
G1 X58.742 Y103.545 E10.25998
G1 X59.973 Y103.378 E10.31783
G1 X61.185 Y103.102 E10.37571
G1 X62.367 Y102.717 E10.43359
G1 X63.51 Y102.229 E10.49147
G1 X64.604 Y101.64 E10.54932
G1 X65.641 Y100.955 E10.60719
G1 X66.613 Y100.181 E10.66505
G1 X67.511 Y99.322 E10.72291
G1 X68.329 Y98.386 E10.7808
G1 X69.059 Y97.38 E10.83867
G1 X69.697 Y96.314 E10.89652
G1 X70.236 Y95.194 E10.9544
G1 X70.672 Y94.03 E11.01228
G1 X71.003 Y92.832 E11.07015
G0 F9000 X70.613 Y92.743
;TYPE:WALL-OUTER
G1 F1800 X70.828 Y91.556 E11.12632
G1 X70.937 Y90.353 E11.18257
G1 X70.937 Y89.147 E11.23872
G1 X70.828 Y87.944 E11.29497
G1 X70.613 Y86.757 E11.35114
G1 X70.291 Y85.594 E11.40733
G1 X69.868 Y84.463 E11.46356
G1 X69.344 Y83.376 E11.51975
G1 X68.725 Y82.341 E11.5759
G1 X68.016 Y81.364 E11.63211
G1 X67.222 Y80.455 E11.68831
G1 X66.35 Y79.621 E11.7445
G1 X65.406 Y78.869 E11.8007
G1 X64.399 Y78.204 E11.85689
G1 X63.336 Y77.632 E11.9131
G1 X62.226 Y77.158 E11.9693
G1 X61.078 Y76.784 E12.02552
G1 X59.902 Y76.516 E12.08169
G1 X58.706 Y76.354 E12.13789
G1 X57.5 Y76.3 E12.1941
G1 X56.294 Y76.354 E12.25031
G1 X55.098 Y76.516 E12.30651
G1 X53.922 Y76.784 E12.36267
G1 X52.774 Y77.158 E12.41889
G1 X51.664 Y77.632 E12.4751
G1 X50.601 Y78.204 E12.5313
G1 X49.594 Y78.869 E12.5875
G1 X48.65 Y79.621 E12.6437
G1 X47.778 Y80.455 E12.69988
G1 X46.984 Y81.364 E12.75608
G1 X46.275 Y82.341 E12.81229
G1 X45.656 Y83.376 E12.86845
G1 X45.132 Y84.463 E12.92464
G1 X44.708 Y85.594 E12.98088
G1 X44.387 Y86.757 E13.03706
G1 X44.172 Y87.944 E13.09323
G1 X44.063 Y89.147 E13.14948
G1 X44.063 Y90.353 E13.20563
G1 X44.172 Y91.556 E13.26188
G1 X44.387 Y92.743 E13.31805
G1 X44.708 Y93.906 E13.37423
G1 X45.132 Y95.037 E13.43047
G1 X45.656 Y96.124 E13.48666
G1 X46.275 Y97.159 E13.54282
G1 X46.984 Y98.136 E13.59903
G1 X47.778 Y99.045 E13.65523
G1 X48.65 Y99.879 E13.71141
G1 X49.594 Y100.631 E13.76761
G1 X50.601 Y101.296 E13.8238
G1 X51.664 Y101.868 E13.88001
G1 X52.774 Y102.342 E13.93621
G1 X53.922 Y102.716 E13.99243
G1 X55.098 Y102.984 E14.0486
G1 X56.294 Y103.146 E14.1048
G1 X57.5 Y103.2 E14.16101
G1 X58.706 Y103.146 E14.21722
G1 X59.902 Y102.984 E14.27342
G1 X61.078 Y102.716 E14.32959
G1 X62.226 Y102.342 E14.38581
G1 X63.336 Y101.868 E14.44201
G1 X64.399 Y101.296 E14.49822
G1 X65.406 Y100.631 E14.55441
G1 X66.35 Y99.879 E14.61061
G1 X67.222 Y99.045 E14.66679
G1 X68.016 Y98.136 E14.72299
G1 X68.725 Y97.159 E14.7792
G1 X69.344 Y96.124 E14.83536
G1 X69.868 Y95.037 E14.89155
G1 X70.291 Y93.906 E14.94777
G1 X70.613 Y92.743 E15.00397
G0 F9000 X71.041 Y92.84
G1 F2700 E10.00397
G0 F9000 X71.811 Y91.69
G0 X69.972 Y91.433
G0 X114.009 Y94.424
G0 X112.897 Y95.915
G0 X114.686 Y96.705
;TYPE:WALL-INNER
G1 F2700 E15.00397
G1 F1800 X115.596 Y97.007 E15.04861
G1 X116.541 Y97.192 E15.09345
G1 X117.5 Y97.252 E15.13819
G1 X118.459 Y97.192 E15.18294
G1 X119.404 Y97.007 E15.22777
G1 X120.314 Y96.705 E15.27242
G1 X121.182 Y96.287 E15.31728
G1 X121.988 Y95.762 E15.36207
G1 X122.719 Y95.139 E15.40679
G1 X123.365 Y94.428 E15.45153
G1 X123.915 Y93.64 E15.49627
G1 X124.361 Y92.786 E15.54113
G1 X124.691 Y91.884 E15.58586
G1 X124.907 Y90.947 E15.63063
G1 X124.999 Y89.99 E15.6754
G1 X124.967 Y89.029 E15.72017
G1 X124.814 Y88.081 E15.76489
G1 X124.54 Y87.16 E15.80963
G1 X124.151 Y86.28 E15.85443
G1 X123.653 Y85.458 E15.89918
G1 X123.054 Y84.705 E15.94399
G1 X122.363 Y84.038 E15.98871
G1 X121.593 Y83.462 E16.03348
G1 X120.755 Y82.991 E16.07825
G1 X119.863 Y82.631 E16.12304
G1 X118.935 Y82.387 E16.16772
G1 X117.981 Y82.263 E16.21251
G1 X117.019 Y82.263 E16.25731
G1 X116.065 Y82.387 E16.3021
G1 X115.137 Y82.631 E16.34678
G1 X114.245 Y82.991 E16.39157
G1 X113.407 Y83.462 E16.43634
G1 X112.637 Y84.038 E16.48111
G1 X111.946 Y84.705 E16.52583
G1 X111.347 Y85.458 E16.57064
G1 X110.863 Y86.258 E16.61417
G1 X110.849 Y86.28 E16.61539
G1 X110.46 Y87.16 E16.66019
G1 X110.186 Y88.081 E16.70493
G1 X110.033 Y89.029 E16.74965
G1 X110.001 Y89.99 E16.79442
G1 X110.093 Y90.947 E16.83919
G1 X110.309 Y91.884 E16.88396
G1 X110.639 Y92.786 E16.92869
G1 X111.085 Y93.64 E16.97355
G1 X111.635 Y94.428 E17.01829
G1 X112.281 Y95.139 E17.06303
G1 X113.012 Y95.762 E17.10775
G1 X113.818 Y96.287 E17.15254
G1 X114.686 Y96.705 E17.1974
G0 F9000 X114.836 Y96.333
G1 F1800 X115.698 Y96.619 E17.23969
G1 X116.592 Y96.794 E17.28211
G1 X117.5 Y96.851 E17.32447
G1 X118.408 Y96.794 E17.36683
G1 X119.302 Y96.619 E17.40925
G1 X120.164 Y96.333 E17.45154
G1 X120.985 Y95.938 E17.49397
G1 X121.748 Y95.441 E17.53637
G1 X122.44 Y94.851 E17.57871
G1 X123.052 Y94.178 E17.62107
G1 X123.572 Y93.432 E17.66341
G1 X123.994 Y92.624 E17.70586
G1 X124.307 Y91.77 E17.74821
G1 X124.511 Y90.883 E17.79059
G1 X124.598 Y89.977 E17.83297
G1 X124.568 Y89.068 E17.87532
G1 X124.423 Y88.17 E17.91768
G1 X124.164 Y87.298 E17.96004
G1 X123.796 Y86.465 E18.00244
G1 X123.324 Y85.687 E18.04481
G1 X122.757 Y84.975 E18.0872
G1 X122.103 Y84.343 E18.12954
G1 X121.374 Y83.798 E18.17193
G1 X120.581 Y83.352 E18.21429
G1 X119.737 Y83.011 E18.25668
G1 X118.858 Y82.78 E18.299
G1 X117.955 Y82.663 E18.3414
G1 X117.045 Y82.663 E18.38377
G1 X116.142 Y82.78 E18.42617
G1 X115.263 Y83.011 E18.46849
G1 X114.419 Y83.352 E18.51088
G1 X113.626 Y83.798 E18.55324
G1 X112.897 Y84.343 E18.59562
G1 X112.243 Y84.975 E18.63797
G1 X111.676 Y85.687 E18.68035
G1 X111.204 Y86.465 E18.72273
G1 X110.836 Y87.298 E18.76513
G1 X110.577 Y88.17 E18.80749
G1 X110.432 Y89.068 E18.84984
G1 X110.402 Y89.977 E18.89219
G1 X110.489 Y90.883 E18.93458
G1 X110.693 Y91.77 E18.97696
G1 X111.006 Y92.624 E19.01931
G1 X111.428 Y93.432 E19.06176
G1 X111.948 Y94.178 E19.1041
G1 X112.56 Y94.851 E19.14646
G1 X113.252 Y95.441 E19.1888
G1 X114.015 Y95.938 E19.2312
G1 X114.836 Y96.333 E19.27362
G0 F9000 X114.986 Y95.961
;TYPE:WALL-OUTER
G1 F1800 X115.8 Y96.231 E19.31356
G1 X116.643 Y96.396 E19.35356
G1 X117.5 Y96.45 E19.39354
G1 X118.357 Y96.396 E19.43353
G1 X119.2 Y96.231 E19.47352
G1 X120.014 Y95.961 E19.51346
G1 X120.788 Y95.589 E19.55345
G1 X121.508 Y95.12 E19.59346
G1 X122.161 Y94.563 E19.63342
G1 X122.739 Y93.928 E19.67341
G1 X123.229 Y93.224 E19.71335
G1 X123.627 Y92.462 E19.75338
G1 X123.923 Y91.656 E19.79336
G1 X124.115 Y90.819 E19.83334
G1 X124.197 Y89.964 E19.87334
G1 X124.169 Y89.107 E19.91327
G1 X124.032 Y88.259 E19.95326
G1 X123.788 Y87.436 E19.99324
G1 X123.441 Y86.65 E20.03324
G1 X122.995 Y85.916 E20.07324
G1 X122.46 Y85.245 E20.1132
G1 X121.843 Y84.648 E20.15317
G1 X121.155 Y84.134 E20.19316
G1 X120.407 Y83.713 E20.23313
G1 X119.611 Y83.391 E20.27311
G1 X118.781 Y83.173 E20.31307
G1 X117.929 Y83.063 E20.35308
G1 X117.071 Y83.063 E20.39303
G1 X116.219 Y83.173 E20.43303
G1 X115.389 Y83.391 E20.47299
G1 X114.593 Y83.713 E20.51297
G1 X113.845 Y84.134 E20.55294
G1 X113.157 Y84.648 E20.59293
G1 X112.54 Y85.245 E20.63291
G1 X112.005 Y85.916 E20.67287
G1 X111.559 Y86.65 E20.71286
G1 X111.212 Y87.436 E20.75287
G1 X110.968 Y88.259 E20.79284
G1 X110.831 Y89.107 E20.83284
G1 X110.803 Y89.964 E20.87276
G1 X110.885 Y90.819 E20.91276
G1 X111.077 Y91.656 E20.95274
G1 X111.373 Y92.462 E20.99273
G1 X111.771 Y93.224 E21.03276
G1 X112.261 Y93.928 E21.0727
G1 X112.839 Y94.563 E21.11268
G1 X113.492 Y95.12 E21.15264
G1 X114.212 Y95.589 E21.19266
G1 X114.986 Y95.961 E21.23264
G0 F9000 X114.822 Y96.368
G1 F2700 E16.23264
G0 F9000 X116.612 Y96.634
G0 X117.5 Y96.69
G0 X118.388 Y96.634
G0 X119.261 Y96.463
G0 X120.103 Y96.184
G0 X120.751 Y95.872
G0 X124.078 Y93.739
G0 X122.489 Y92.774
G0 X166.677 Y89.227
G0 X164.822 Y89.145
G0 X166.639 Y84.791
G0 X167.161 Y83.781
G0 X167.774 Y82.824
G0 X168.477 Y81.931
G0 X169.261 Y81.109
G0 X170.119 Y80.365
G0 X171.046 Y79.707
G0 X172.028 Y79.137
G0 X173.064 Y78.665
G0 X174.137 Y78.294
G0 X175.241 Y78.025
G0 X176.366 Y77.865
G0 X177.5 Y77.81
G0 X178.634 Y77.865
G0 X179.759 Y78.025
