;FLAVOR:Marlin
;TIME:8492
;Filament used: 11.187m
;Layer height: 0.28
;MINX:68.952
;MINY:69.7
;MINZ:0.28
;MAXX:166.048
;MAXY:135.8
;MAXZ:29.4
;Generated with Cura_SteamEngine 4.5.0
M140 S50
M105
M190 S50
M104 S200
M105
M109 S200
M82 ;absolute extrusion mode
; Ender 3 Custom Start G-code
G92 E0 ; Reset Extruder
G28 ; Home all axes
G1 Z2.0 F3000 ; Move Z Axis up little to prevent scratching of Heat Bed
G1 X0.1 Y20 Z0.3 F5000.0 ; Move to start position
G1 X0.1 Y200.0 Z0.3 F1500.0 E15 ; Draw the first line
G1 X0.4 Y200.0 Z0.3 F5000.0 ; Move to side a little
G1 X0.4 Y20 Z0.3 F1500.0 E30 ; Draw the second line
G92 E0 ; Reset Extruder
G1 Z2.0 F3000 ; Move Z Axis up little to prevent scratching of Heat Bed
G1 X5 Y20 Z0.3 F5000.0 ; Move over to prevent blob squish
G92 E0
G92 E0
G1 F2700 E-5
;LAYER_COUNT:105
;LAYER:0
M107
G0 F9000 X71.984 Y72.413 Z0.28
;TYPE:SKIRT
G1 F2700 E0
G1 F1800 X72.228 Y72.187 E0.01549
G1 X72.597 Y71.875 E0.03799
G1 X72.833 Y71.692 E0.05189
G1 X73.235 Y71.403 E0.07495
G1 X73.484 Y71.238 E0.08886
G1 X73.905 Y70.983 E0.11178
G1 X74.206 Y70.819 E0.12774
G1 X74.646 Y70.604 E0.15054
G1 X74.915 Y70.485 E0.16424
G1 X75.377 Y70.302 E0.18738
G1 X75.692 Y70.193 E0.2029
G1 X76.169 Y70.051 E0.22607
G1 X76.459 Y69.977 E0.24001
G1 X76.955 Y69.871 E0.26362
G1 X77.254 Y69.819 E0.27776
G1 X77.734 Y69.756 E0.3003
G1 X78.064 Y69.728 E0.31572
G1 X78.73 Y69.702 E0.34676
G1 X80.734 Y69.7 E0.44007
G1 X156.247 Y69.7 E3.95627
G1 X156.389 Y69.703 E3.96289
G1 X156.872 Y69.721 E3.98539
G1 X157.195 Y69.747 E4.00048
G1 X157.674 Y69.806 E4.02295
G1 X157.982 Y69.856 E4.03748
G1 X158.473 Y69.958 E4.06083
G1 X158.764 Y70.031 E4.0748
G1 X159.237 Y70.169 E4.09775
G1 X159.547 Y70.274 E4.11299
G1 X160.019 Y70.457 E4.13656
G1 X160.294 Y70.577 E4.15053
G1 X160.734 Y70.789 E4.17327
G1 X161.014 Y70.938 E4.18804
G1 X161.44 Y71.189 E4.21107
G1 X161.712 Y71.365 E4.22615
G1 X162.116 Y71.652 E4.24923
G1 X162.36 Y71.841 E4.2636
G1 X162.742 Y72.162 E4.28683
G1 X162.973 Y72.373 E4.3014
G1 X163.337 Y72.734 E4.32527
G1 X163.565 Y72.981 E4.34092
G1 X163.879 Y73.353 E4.36359
G1 X164.058 Y73.583 E4.37716
G1 X164.344 Y73.98 E4.39995
G1 X164.512 Y74.233 E4.41409
G1 X164.768 Y74.656 E4.43711
G1 X164.931 Y74.956 E4.45301
G1 X165.144 Y75.392 E4.4756
G1 X165.259 Y75.651 E4.4888
G1 X165.443 Y76.112 E4.51191
G1 X165.555 Y76.433 E4.52774
G1 X165.697 Y76.908 E4.55083
G1 X165.773 Y77.204 E4.56506
G1 X165.88 Y77.706 E4.58896
G1 X165.93 Y77.997 E4.60271
G1 X165.993 Y78.471 E4.62497
G1 X166.022 Y78.806 E4.64063
G1 X166.048 Y79.476 E4.67185
G1 X166.047 Y125.133 E6.79783
G1 X166.029 Y125.62 E6.82053
G1 X166.003 Y125.946 E6.83575
G1 X165.944 Y126.423 E6.85813
G1 X165.895 Y126.723 E6.87229
G1 X165.795 Y127.209 E6.89539
G1 X165.721 Y127.507 E6.90969
G1 X165.581 Y127.987 E6.93297
G1 X165.477 Y128.295 E6.94811
G1 X165.295 Y128.765 E6.97158
G1 X165.174 Y129.043 E6.9857
G1 X164.961 Y129.485 E7.00854
G1 X164.812 Y129.764 E7.02327
G1 X164.561 Y130.19 E7.04629
G1 X164.385 Y130.462 E7.06138
G1 X164.098 Y130.866 E7.08446
G1 X163.909 Y131.11 E7.09883
G1 X163.588 Y131.492 E7.12206
G1 X163.377 Y131.723 E7.13663
G1 X163.016 Y132.087 E7.1605
G1 X162.772 Y132.313 E7.17599
G1 X162.403 Y132.625 E7.19849
G1 X162.167 Y132.808 E7.21239
G1 X161.765 Y133.097 E7.23545
G1 X161.516 Y133.262 E7.24936
G1 X161.095 Y133.517 E7.27228
G1 X160.794 Y133.681 E7.28824
G1 X160.354 Y133.896 E7.31104
G1 X160.085 Y134.015 E7.32474
G1 X159.623 Y134.198 E7.34788
G1 X159.308 Y134.307 E7.3634
G1 X158.831 Y134.449 E7.38657
G1 X158.541 Y134.523 E7.40051
G1 X158.045 Y134.629 E7.42412
G1 X157.746 Y134.681 E7.43826
G1 X157.266 Y134.744 E7.4608
G1 X156.936 Y134.772 E7.47622
G1 X156.266 Y134.798 E7.50744
G1 X130.978 Y134.801 E8.68496
G1 X130.906 Y134.86 E8.68929
G1 X130.693 Y135.018 E8.70164
G1 X130.228 Y135.313 E8.72728
G1 X129.725 Y135.538 E8.75294
G1 X129.017 Y135.72 E8.78698
G1 X128.8 Y135.754 E8.79721
G1 X128.21 Y135.8 E8.82476
G1 X119.189 Y135.795 E9.24482
G1 X118.639 Y135.755 E9.2705
G1 X118.101 Y135.635 E9.29616
G1 X117.738 Y135.506 E9.3141
G1 X117.489 Y135.403 E9.32665
G1 X116.997 Y135.156 E9.35229
G1 X116.545 Y134.841 E9.37794
G1 X116.502 Y134.8 E9.38071
G1 X78.61 Y134.797 E11.14512
G1 X78.129 Y134.779 E11.16753
G1 X77.807 Y134.754 E11.18257
G1 X77.327 Y134.695 E11.20509
G1 X77.018 Y134.644 E11.21967
G1 X76.527 Y134.542 E11.24302
G1 X76.236 Y134.469 E11.25699
G1 X75.763 Y134.331 E11.27993
G1 X75.453 Y134.226 E11.29517
G1 X74.981 Y134.043 E11.31875
G1 X74.706 Y133.923 E11.33272
G1 X74.266 Y133.711 E11.35546
G1 X73.986 Y133.562 E11.37023
G1 X73.56 Y133.311 E11.39325
G1 X73.287 Y133.134 E11.4084
G1 X72.882 Y132.846 E11.43154
G1 X72.639 Y132.658 E11.44585
G1 X72.257 Y132.337 E11.46908
G1 X72.026 Y132.126 E11.48365
G1 X71.662 Y131.765 E11.50752
G1 X71.434 Y131.518 E11.52318
G1 X71.12 Y131.146 E11.54584
G1 X70.938 Y130.912 E11.55965
G1 X70.652 Y130.514 E11.58247
G1 X70.488 Y130.266 E11.59631
G1 X70.233 Y129.845 E11.61923
G1 X70.069 Y129.544 E11.63519
G1 X69.853 Y129.102 E11.6581
G1 X69.734 Y128.832 E11.67184
G1 X69.552 Y128.372 E11.69487
G1 X69.443 Y128.058 E11.71035
G1 X69.301 Y127.581 E11.73353
G1 X69.227 Y127.291 E11.74746
G1 X69.121 Y126.795 E11.77108
G1 X69.069 Y126.496 E11.78521
G1 X69.006 Y126.016 E11.80775
G1 X68.978 Y125.689 E11.82304
G1 X68.952 Y125.025 E11.85398
G1 X68.953 Y79.367 E13.98001
G1 X68.971 Y78.879 E14.00274
G1 X68.997 Y78.552 E14.01802
G1 X69.056 Y78.076 E14.04035
G1 X69.105 Y77.777 E14.05446
G1 X69.205 Y77.291 E14.07757
G1 X69.279 Y76.993 E14.09186
G1 X69.419 Y76.513 E14.11515
G1 X69.523 Y76.206 E14.13024
G1 X69.706 Y75.733 E14.15386
G1 X69.828 Y75.452 E14.16812
G1 X70.04 Y75.013 E14.19082
G1 X70.188 Y74.736 E14.20544
G1 X70.439 Y74.31 E14.22847
G1 X70.615 Y74.038 E14.24355
G1 X70.902 Y73.634 E14.26663
G1 X71.091 Y73.39 E14.281
G1 X71.412 Y73.008 E14.30423
G1 X71.623 Y72.777 E14.3188
G1 X71.984 Y72.413 E14.34267
G0 F9000 X72.268 Y72.695
G1 F1800 X72.487 Y72.493 E14.35655
G1 X72.856 Y72.181 E14.37905
G1 X73.066 Y72.016 E14.39148
G1 X73.468 Y71.727 E14.41454
G1 X73.692 Y71.58 E14.42701
G1 X74.113 Y71.325 E14.44993
G1 X74.381 Y71.178 E14.46417
G1 X74.821 Y70.963 E14.48697
G1 X75.062 Y70.857 E14.49923
G1 X75.524 Y70.674 E14.52237
G1 X75.806 Y70.576 E14.53627
G1 X76.283 Y70.434 E14.55944
G1 X76.542 Y70.368 E14.57189
G1 X77.038 Y70.262 E14.59551
G1 X77.307 Y70.216 E14.60821
G1 X77.787 Y70.153 E14.63076
G1 X78.081 Y70.127 E14.6445
G1 X78.731 Y70.102 E14.67479
G1 X80.735 Y70.1 E14.7681
G1 X156.247 Y70.1 E18.28426
G1 X156.374 Y70.102 E18.29017
G1 X156.857 Y70.12 E18.31268
G1 X157.146 Y70.144 E18.32618
G1 X157.625 Y70.203 E18.34865
G1 X157.901 Y70.248 E18.36168
G1 X158.392 Y70.35 E18.38503
G1 X158.652 Y70.415 E18.39751
G1 X159.125 Y70.553 E18.42045
G1 X159.402 Y70.647 E18.43407
G1 X159.874 Y70.83 E18.45764
G1 X160.121 Y70.937 E18.47018
G1 X160.561 Y71.149 E18.49292
G1 X160.811 Y71.283 E18.50613
G1 X161.237 Y71.534 E18.52915
G1 X161.48 Y71.691 E18.54262
G1 X161.884 Y71.978 E18.5657
G1 X162.102 Y72.147 E18.57854
G1 X162.484 Y72.468 E18.60178
G1 X162.691 Y72.657 E18.61483
G1 X163.055 Y73.018 E18.6387
G1 X163.259 Y73.239 E18.6527
G1 X163.573 Y73.611 E18.67537
G1 X163.734 Y73.817 E18.68755
G1 X164.02 Y74.214 E18.71033
G1 X164.17 Y74.441 E18.723
G1 X164.426 Y74.864 E18.74602
G1 X164.572 Y75.132 E18.76023
G1 X164.785 Y75.568 E18.78283
G1 X164.888 Y75.8 E18.79465
G1 X165.072 Y76.261 E18.81776
G1 X165.172 Y76.547 E18.83187
G1 X165.314 Y77.022 E18.85495
G1 X165.381 Y77.287 E18.86768
G1 X165.488 Y77.789 E18.89158
G1 X165.533 Y78.05 E18.90391
G1 X165.596 Y78.524 E18.92618
G1 X165.623 Y78.824 E18.9402
G1 X165.648 Y79.476 E18.97059
G1 X165.648 Y125.119 E21.09592
G1 X165.63 Y125.606 E21.11861
G1 X165.606 Y125.897 E21.1322
G1 X165.547 Y126.374 E21.15459
G1 X165.503 Y126.642 E21.16723
G1 X165.403 Y127.128 E21.19034
G1 X165.337 Y127.395 E21.20314
G1 X165.197 Y127.875 E21.22642
G1 X165.104 Y128.151 E21.23999
G1 X164.922 Y128.621 E21.26345
G1 X164.814 Y128.869 E21.27605
G1 X164.601 Y129.311 E21.2989
G1 X164.467 Y129.561 E21.3121
G1 X164.216 Y129.987 E21.33513
G1 X164.059 Y130.23 E21.3486
G1 X163.772 Y130.634 E21.37168
G1 X163.603 Y130.852 E21.38452
G1 X163.282 Y131.234 E21.40775
G1 X163.093 Y131.441 E21.42081
G1 X162.732 Y131.805 E21.44468
G1 X162.513 Y132.007 E21.45855
G1 X162.144 Y132.319 E21.48105
G1 X161.934 Y132.484 E21.49349
G1 X161.532 Y132.773 E21.51654
G1 X161.308 Y132.92 E21.52902
G1 X160.887 Y133.175 E21.55194
G1 X160.619 Y133.322 E21.56617
G1 X160.179 Y133.537 E21.58897
G1 X159.938 Y133.643 E21.60123
G1 X159.476 Y133.826 E21.62437
G1 X159.194 Y133.924 E21.63827
G1 X158.717 Y134.066 E21.66145
G1 X158.458 Y134.132 E21.67389
G1 X157.962 Y134.238 E21.69751
G1 X157.693 Y134.284 E21.71022
G1 X157.213 Y134.347 E21.73276
G1 X156.919 Y134.373 E21.7465
G1 X156.266 Y134.398 E21.77693
G1 X130.839 Y134.401 E22.96092
G1 X130.668 Y134.539 E22.97115
G1 X130.455 Y134.697 E22.9835
G1 X130.013 Y134.974 E23.00779
G1 X129.535 Y135.181 E23.03204
G1 X128.955 Y135.325 E23.05987
G1 X128.738 Y135.359 E23.0701
G1 X128.21 Y135.4 E23.09476
G1 X119.189 Y135.395 E23.51481
G1 X118.67 Y135.355 E23.53905
G1 X118.162 Y135.236 E23.56335
G1 X117.891 Y135.137 E23.57678
G1 X117.642 Y135.034 E23.58933
G1 X117.177 Y134.798 E23.61361
G1 X116.754 Y134.494 E23.63787
G1 X116.658 Y134.4 E23.64412
G1 X78.625 Y134.398 E25.4151
G1 X78.144 Y134.38 E25.43751
G1 X77.856 Y134.357 E25.45096
G1 X77.376 Y134.298 E25.47348
G1 X77.099 Y134.252 E25.48656
G1 X76.608 Y134.15 E25.50991
G1 X76.348 Y134.085 E25.52239
G1 X75.875 Y133.947 E25.54533
G1 X75.598 Y133.853 E25.55895
G1 X75.126 Y133.67 E25.58253
G1 X74.879 Y133.563 E25.59506
G1 X74.439 Y133.351 E25.6178
G1 X74.189 Y133.217 E25.63101
G1 X73.763 Y132.966 E25.65403
G1 X73.519 Y132.808 E25.66757
G1 X73.114 Y132.52 E25.69071
G1 X72.897 Y132.352 E25.70349
G1 X72.515 Y132.031 E25.72672
G1 X72.308 Y131.842 E25.73977
G1 X71.944 Y131.481 E25.76365
G1 X71.74 Y131.26 E25.77765
G1 X71.426 Y130.888 E25.80032
G1 X71.263 Y130.679 E25.81266
G1 X70.977 Y130.281 E25.83548
G1 X70.83 Y130.058 E25.84792
G1 X70.575 Y129.637 E25.87084
G1 X70.428 Y129.369 E25.88507
G1 X70.212 Y128.927 E25.90798
G1 X70.105 Y128.685 E25.9203
G1 X69.923 Y128.225 E25.94333
G1 X69.826 Y127.944 E25.95718
G1 X69.684 Y127.467 E25.98035
G1 X69.618 Y127.208 E25.9928
G1 X69.512 Y126.712 E26.01641
G1 X69.466 Y126.443 E26.02912
G1 X69.403 Y125.963 E26.05166
G1 X69.377 Y125.672 E26.06527
G1 X69.352 Y125.025 E26.09542
G1 X69.352 Y79.382 E28.22075
G1 X69.37 Y78.894 E28.24348
G1 X69.394 Y78.601 E28.25717
G1 X69.453 Y78.125 E28.27951
G1 X69.497 Y77.858 E28.29211
G1 X69.597 Y77.372 E28.31521
G1 X69.663 Y77.105 E28.32802
G1 X69.803 Y76.625 E28.3513
G1 X69.896 Y76.35 E28.36482
G1 X70.079 Y75.877 E28.38843
G1 X70.188 Y75.625 E28.40122
G1 X70.4 Y75.186 E28.42392
G1 X70.533 Y74.939 E28.43698
G1 X70.784 Y74.513 E28.46001
G1 X70.941 Y74.27 E28.47348
G1 X71.228 Y73.866 E28.49655
G1 X71.397 Y73.648 E28.5094
G1 X71.718 Y73.266 E28.53263
G1 X71.907 Y73.059 E28.54568
G1 X72.268 Y72.695 E28.56955
G0 F9000 X72.552 Y72.976
G1 F1800 X72.745 Y72.798 E28.58178
G1 X73.114 Y72.486 E28.60428
G1 X73.3 Y72.341 E28.61526
G1 X73.702 Y72.052 E28.63832
G1 X73.899 Y71.922 E28.64931
G1 X74.32 Y71.667 E28.67223
G1 X74.557 Y71.538 E28.68479
G1 X74.997 Y71.323 E28.70759
G1 X75.209 Y71.229 E28.71839
G1 X75.671 Y71.046 E28.74153
G1 X75.92 Y70.96 E28.7538
G1 X76.397 Y70.818 E28.77697
G1 X76.626 Y70.759 E28.78798
G1 X77.122 Y70.653 E28.8116
G1 X77.359 Y70.613 E28.82279
G1 X77.839 Y70.55 E28.84534
G1 X78.098 Y70.527 E28.85744
G1 X78.731 Y70.502 E28.88694
G1 X80.735 Y70.5 E28.98026
G1 X156.247 Y70.5 E32.49641
G1 X156.359 Y70.502 E32.50163
G1 X156.842 Y70.52 E32.52413
G1 X157.097 Y70.541 E32.53605
G1 X157.576 Y70.6 E32.55852
G1 X157.819 Y70.64 E32.56999
G1 X158.31 Y70.742 E32.59334
G1 X158.54 Y70.799 E32.60437
G1 X159.013 Y70.937 E32.62732
G1 X159.257 Y71.02 E32.63932
G1 X159.729 Y71.203 E32.66289
G1 X159.947 Y71.297 E32.67394
G1 X160.387 Y71.509 E32.69669
G1 X160.608 Y71.627 E32.70835
G1 X161.034 Y71.878 E32.73138
G1 X161.248 Y72.017 E32.74326
G1 X161.652 Y72.304 E32.76633
G1 X161.845 Y72.453 E32.77769
G1 X162.227 Y72.774 E32.80092
G1 X162.41 Y72.941 E32.81246
G1 X162.774 Y73.302 E32.83633
G1 X162.953 Y73.497 E32.84865
G1 X163.267 Y73.869 E32.87132
G1 X163.409 Y74.05 E32.88203
G1 X163.695 Y74.447 E32.90482
G1 X163.828 Y74.648 E32.91604
G1 X164.084 Y75.071 E32.93906
G1 X164.213 Y75.307 E32.95159
G1 X164.426 Y75.743 E32.97418
G1 X164.516 Y75.948 E32.98461
G1 X164.7 Y76.409 E33.00772
G1 X164.788 Y76.662 E33.02019
G1 X164.93 Y77.137 E33.04328
G1 X164.99 Y77.371 E33.05453
G1 X165.097 Y77.873 E33.07843
G1 X165.137 Y78.103 E33.0893
G1 X165.2 Y78.577 E33.11156
G1 X165.223 Y78.841 E33.1239
G1 X165.248 Y79.476 E33.15349
G1 X165.248 Y125.104 E35.27812
G1 X165.23 Y125.591 E35.30082
G1 X165.209 Y125.848 E35.31282
G1 X165.15 Y126.325 E35.3352
G1 X165.111 Y126.562 E35.34639
G1 X165.011 Y127.048 E35.36949
G1 X164.953 Y127.283 E35.38076
G1 X164.813 Y127.763 E35.40404
G1 X164.731 Y128.006 E35.41599
G1 X164.549 Y128.476 E35.43946
G1 X164.454 Y128.695 E35.45057
G1 X164.241 Y129.137 E35.47342
G1 X164.123 Y129.358 E35.48508
G1 X163.872 Y129.784 E35.50811
G1 X163.733 Y129.998 E35.51999
G1 X163.446 Y130.402 E35.54306
G1 X163.297 Y130.595 E35.55442
G1 X162.976 Y130.977 E35.57765
G1 X162.809 Y131.16 E35.58919
G1 X162.448 Y131.524 E35.61306
G1 X162.255 Y131.702 E35.62528
G1 X161.886 Y132.014 E35.64779
G1 X161.7 Y132.159 E35.65877
G1 X161.298 Y132.448 E35.68182
G1 X161.101 Y132.578 E35.69281
G1 X160.68 Y132.833 E35.71573
G1 X160.443 Y132.962 E35.7283
G1 X160.003 Y133.177 E35.7511
G1 X159.791 Y133.271 E35.7619
G1 X159.329 Y133.454 E35.78504
G1 X159.08 Y133.54 E35.7973
G1 X158.603 Y133.682 E35.82048
G1 X158.374 Y133.741 E35.83149
G1 X157.878 Y133.847 E35.85511
G1 X157.641 Y133.887 E35.8663
G1 X157.161 Y133.95 E35.88884
G1 X156.902 Y133.973 E35.90095
G1 X156.266 Y133.998 E35.93059
G1 X130.664 Y134.001 E37.12272
G1 X130.429 Y134.217 E37.13758
G1 X130.216 Y134.375 E37.14993
G1 X129.801 Y134.634 E37.17271
G1 X129.349 Y134.822 E37.19551
G1 X128.893 Y134.93 E37.21733
G1 X128.676 Y134.964 E37.22756
G1 X128.21 Y135 E37.24932
G1 X119.189 Y134.995 E37.66938
G1 X118.702 Y134.955 E37.69213
G1 X118.044 Y134.767 E37.72399
G1 X117.795 Y134.664 E37.73654
G1 X117.36 Y134.441 E37.7593
G1 X116.966 Y134.15 E37.78211
G1 X116.828 Y134 E37.7916
G1 X78.64 Y133.998 E39.56979
G1 X78.159 Y133.98 E39.59221
G1 X77.905 Y133.96 E39.60407
G1 X77.425 Y133.901 E39.62659
G1 X77.181 Y133.86 E39.63811
G1 X76.69 Y133.758 E39.66146
G1 X76.46 Y133.701 E39.6725
G1 X75.987 Y133.563 E39.69544
G1 X75.743 Y133.48 E39.70744
G1 X75.271 Y133.297 E39.73101
G1 X75.053 Y133.203 E39.74207
G1 X74.613 Y132.991 E39.76481
G1 X74.392 Y132.873 E39.77648
G1 X73.966 Y132.622 E39.7995
G1 X73.75 Y132.482 E39.81148
G1 X73.345 Y132.194 E39.83463
G1 X73.154 Y132.046 E39.84588
G1 X72.772 Y131.725 E39.86911
G1 X72.589 Y131.558 E39.88065
G1 X72.225 Y131.197 E39.90452
G1 X72.046 Y131.002 E39.91684
G1 X71.732 Y130.63 E39.93951
G1 X71.588 Y130.446 E39.95039
G1 X71.302 Y130.048 E39.97321
G1 X71.172 Y129.851 E39.9842
G1 X70.917 Y129.43 E40.00712
G1 X70.788 Y129.193 E40.01969
G1 X70.572 Y128.751 E40.04259
G1 X70.477 Y128.538 E40.05345
G1 X70.295 Y128.078 E40.07649
G1 X70.21 Y127.83 E40.0887
G1 X70.068 Y127.353 E40.11187
G1 X70.009 Y127.124 E40.12288
G1 X69.903 Y126.628 E40.1465
G1 X69.863 Y126.391 E40.15769
G1 X69.8 Y125.911 E40.18023
G1 X69.777 Y125.654 E40.19225
G1 X69.752 Y125.025 E40.22156
G1 X69.752 Y79.396 E42.34624
G1 X69.77 Y78.908 E42.36898
G1 X69.791 Y78.65 E42.38103
G1 X69.85 Y78.174 E42.40336
G1 X69.889 Y77.938 E42.4145
G1 X69.989 Y77.452 E42.43761
G1 X70.047 Y77.217 E42.44888
G1 X70.187 Y76.737 E42.47216
G1 X70.269 Y76.495 E42.48406
G1 X70.452 Y76.022 E42.50767
G1 X70.549 Y75.799 E42.519
G1 X70.761 Y75.36 E42.5417
G1 X70.877 Y75.142 E42.5532
G1 X71.128 Y74.716 E42.57622
G1 X71.267 Y74.502 E42.5881
G1 X71.554 Y74.098 E42.61118
G1 X71.703 Y73.905 E42.62253
G1 X72.024 Y73.523 E42.64576
G1 X72.191 Y73.34 E42.6573
G1 X72.552 Y72.976 E42.68117
G0 F9000 X72.836 Y73.258
