;FLAVOR:Marlin
;TIME:11106
;Filament used: 16.72m
;Layer height: 0.28
;MINX:48.755
;MINY:61.731
;MINZ:0.28
;MAXX:186.245
;MAXY:173.267
;MAXZ:75.88
;Generated with Cura_SteamEngine 4.5.0
M140 S50
M105
M190 S50
M104 S200
M105
M109 S200
M82 ;absolute extrusion mode
; Ender 3 Custom Start G-code
G92 E0 ; Reset Extruder
G28 ; Home all axes
G1 Z2.0 F3000 ; Move Z Axis up little to prevent scratching of Heat Bed
G1 X0.1 Y20 Z0.3 F5000.0 ; Move to start position
G1 X0.1 Y200.0 Z0.3 F1500.0 E15 ; Draw the first line
G1 X0.4 Y200.0 Z0.3 F5000.0 ; Move to side a little
G1 X0.4 Y20 Z0.3 F1500.0 E30 ; Draw the second line
G92 E0 ; Reset Extruder
G1 Z2.0 F3000 ; Move Z Axis up little to prevent scratching of Heat Bed
G1 X5 Y20 Z0.3 F5000.0 ; Move over to prevent blob squish
G92 E0
G92 E0
G1 F2700 E-5
;LAYER_COUNT:275
;LAYER:0
M107
G0 F9000 X55.576 Y66.043 Z0.28
;TYPE:SKIRT
G1 F2700 E0
G1 F1800 X55.783 Y65.874 E0.01244
G1 X56.588 Y65.264 E0.05947
G1 X56.796 Y65.117 E0.07133
G1 X57.665 Y64.546 E0.11975
G1 X57.885 Y64.413 E0.13172
G1 X58.764 Y63.917 E0.17872
G1 X58.995 Y63.796 E0.19086
G1 X59.928 Y63.351 E0.23899
G1 X60.164 Y63.248 E0.25098
G1 X61.108 Y62.874 E0.29827
G1 X61.353 Y62.787 E0.31037
G1 X62.343 Y62.471 E0.35876
G1 X62.595 Y62.4 E0.37095
G1 X63.576 Y62.16 E0.41798
G1 X63.828 Y62.107 E0.42997
G1 X64.84 Y61.931 E0.4778
G1 X65.099 Y61.895 E0.48998
G1 X66.122 Y61.789 E0.53787
G1 X66.377 Y61.771 E0.54977
G1 X67.542 Y61.732 E0.60405
G1 X107.513 Y61.731 E2.46526
G1 X108.062 Y61.771 E2.4909
G1 X108.6 Y61.89 E2.51655
G1 X108.962 Y62.017 E2.53442
G1 X109.46 Y62.254 E2.5601
G1 X109.918 Y62.56 E2.58575
G1 X110.197 Y62.799 E2.60285
G1 X116.828 Y69.073 E3.02792
G1 X120.831 Y72.805 E3.28276
G1 X124.554 Y76.208 E3.51763
G1 X127.899 Y79.184 E3.72611
G1 X128.672 Y79.857 E3.77383
G1 X130.169 Y81.135 E3.86548
G1 X130.858 Y81.713 E3.90736
G1 X131.527 Y82.267 E3.94781
G1 X132.73 Y83.241 E4.01988
G1 X133.863 Y84.132 E4.087
G1 X134.982 Y84.982 E4.15243
G1 X135.443 Y85.322 E4.1791
G1 X136.475 Y86.063 E4.23826
G1 X137.417 Y86.715 E4.29161
G1 X138.406 Y87.371 E4.34687
G1 X139.325 Y87.954 E4.39755
G1 X140.268 Y88.527 E4.44893
G1 X141.273 Y89.112 E4.50307
G1 X142.274 Y89.667 E4.55637
G1 X143.322 Y90.222 E4.61159
G1 X143.889 Y90.512 E4.64125
G1 X144.495 Y90.816 E4.67281
G1 X145.065 Y91.096 E4.70239
G1 X145.715 Y91.408 E4.73596
G1 X146.331 Y91.697 E4.76764
G1 X147.017 Y92.012 E4.80279
G1 X147.757 Y92.346 E4.8406
G1 X148.489 Y92.67 E4.87787
G1 X149.308 Y93.026 E4.91945
G1 X150.131 Y93.376 E4.9611
G1 X151.052 Y93.762 E5.0076
G1 X154.152 Y95.017 E5.16333
G1 X158.114 Y96.553 E5.36119
G1 X162.274 Y98.108 E5.56799
G1 X173.664 Y102.222 E6.13189
G1 X174.167 Y102.446 E6.15753
G1 X174.633 Y102.741 E6.18321
G1 X175.051 Y103.1 E6.20887
G1 X175.488 Y103.619 E6.24046
G1 X175.56 Y103.722 E6.24631
G1 X175.842 Y104.195 E6.27196
G1 X176.052 Y104.704 E6.2976
G1 X176.187 Y105.239 E6.32329
G1 X176.245 Y105.899 E6.35414
G1 X176.245 Y108.432 E6.47209
G1 X181.848 Y107.744 E6.73495
G1 X182.398 Y107.717 E6.76059
G1 X182.947 Y107.77 E6.78627
G1 X183.482 Y107.901 E6.81192
G1 X183.992 Y108.108 E6.83755
G1 X184.467 Y108.387 E6.8632
G1 X184.846 Y108.685 E6.88565
G1 X184.98 Y108.805 E6.89402
G1 X185.363 Y109.202 E6.91971
G1 X185.684 Y109.649 E6.94533
G1 X185.937 Y110.138 E6.97097
G1 X186.117 Y110.659 E6.99664
G1 X186.22 Y111.201 E7.02233
G1 X186.245 Y111.636 E7.04262
G1 X186.245 Y123.364 E7.58872
G1 X186.205 Y123.914 E7.6144
G1 X186.086 Y124.452 E7.64006
G1 X185.89 Y124.967 E7.66572
G1 X185.622 Y125.448 E7.69135
G1 X185.288 Y125.886 E7.717
G1 X184.979 Y126.196 E7.73738
G1 X184.846 Y126.315 E7.74569
G1 X184.41 Y126.652 E7.77135
G1 X183.929 Y126.922 E7.79704
G1 X183.415 Y127.119 E7.82267
G1 X182.878 Y127.241 E7.84831
G1 X182.328 Y127.283 E7.874
G1 X181.85 Y127.255 E7.89629
G1 X176.245 Y126.568 E8.15924
G1 X176.245 Y129.101 E8.27719
G1 X176.205 Y129.651 E8.30286
G1 X176.086 Y130.189 E8.32852
G1 X175.89 Y130.704 E8.35418
G1 X175.564 Y131.272 E8.38467
G1 X175.493 Y131.374 E8.39046
G1 X175.146 Y131.802 E8.41612
G1 X174.741 Y132.176 E8.44179
G1 X174.286 Y132.487 E8.46745
G1 X173.688 Y132.768 E8.49822
G1 X166.828 Y135.297 E8.83866
G1 X160.92 Y137.526 E9.13269
G1 X156.492 Y139.251 E9.35397
G1 X152.587 Y140.839 E9.55026
G1 X151.709 Y141.207 E9.59459
G1 X149.997 Y141.947 E9.68144
G1 X148.424 Y142.649 E9.76165
G1 X147.755 Y142.954 E9.79588
G1 X147.078 Y143.27 E9.83067
G1 X145.793 Y143.891 E9.89713
G1 X145.256 Y144.157 E9.92503
G1 X144.083 Y144.759 E9.98643
G1 X143.084 Y145.293 E10.03917
G1 X142.025 Y145.884 E10.09564
G1 X141.049 Y146.453 E10.14825
G1 X140.114 Y147.02 E10.19917
G1 X139.163 Y147.622 E10.25158
G1 X138.161 Y148.283 E10.30747
G1 X137.239 Y148.916 E10.35955
G1 X136.179 Y149.67 E10.42012
G1 X135.681 Y150.033 E10.44881
G1 X134.599 Y150.844 E10.51178
G1 X132.823 Y152.223 E10.61648
G1 X132.162 Y152.752 E10.6559
G1 X130.801 Y153.862 E10.73768
G1 X130.041 Y154.492 E10.78365
G1 X127.527 Y156.621 E10.93705
G1 X123.816 Y159.86 E11.16641
G1 X119.646 Y163.584 E11.42674
G1 X110.155 Y172.239 E12.02484
G1 X109.722 Y172.58 E12.05051
G1 X109.006 Y172.959 E12.08823
G1 X108.936 Y172.987 E12.09174
G1 X108.411 Y173.154 E12.11739
G1 X107.867 Y173.244 E12.14307
G1 X107.526 Y173.259 E12.15896
G1 X67.432 Y173.267 E14.02591
G1 X66.421 Y173.233 E14.07301
G1 X66.167 Y173.216 E14.08487
G1 X65.147 Y173.113 E14.1326
G1 X64.886 Y173.077 E14.14487
G1 X63.873 Y172.903 E14.19273
G1 X63.621 Y172.851 E14.20471
G1 X62.639 Y172.613 E14.25176
G1 X62.391 Y172.544 E14.26375
G1 X61.399 Y172.231 E14.31219
G1 X61.147 Y172.142 E14.32463
G1 X60.207 Y171.771 E14.37169
G1 X59.975 Y171.67 E14.38347
G1 X59.038 Y171.226 E14.43175
G1 X58.807 Y171.107 E14.44385
G1 X57.915 Y170.607 E14.49146
G1 X57.697 Y170.475 E14.50333
G1 X56.849 Y169.922 E14.55047
G1 X56.633 Y169.77 E14.56277
G1 X55.804 Y169.143 E14.61117
G1 X55.601 Y168.978 E14.62335
G1 X54.837 Y168.313 E14.67051
G1 X54.647 Y168.136 E14.68261
G1 X53.914 Y167.404 E14.73084
G1 X53.74 Y167.218 E14.7427
G1 X53.071 Y166.454 E14.78999
G1 X52.899 Y166.242 E14.8027
G1 X52.283 Y165.427 E14.85027
G1 X52.14 Y165.226 E14.86176
G1 X51.571 Y164.362 E14.90993
G1 X51.436 Y164.139 E14.92207
G1 X50.94 Y163.26 E14.96906
G1 X50.819 Y163.028 E14.98125
G1 X50.372 Y162.09 E15.02963
G1 X50.267 Y161.85 E15.04183
G1 X49.896 Y160.91 E15.08889
G1 X49.812 Y160.673 E15.10059
G1 X49.496 Y159.685 E15.1489
G1 X49.425 Y159.433 E15.16109
G1 X49.183 Y158.447 E15.20836
G1 X49.13 Y158.194 E15.2204
G1 X48.954 Y157.185 E15.26809
G1 X48.917 Y156.917 E15.28069
G1 X48.813 Y155.897 E15.32843
G1 X48.795 Y155.649 E15.34001
G1 X48.756 Y154.493 E15.39387
G1 X48.755 Y153.438 E15.44299
G1 X48.755 Y80.534 E18.83771
G1 X48.757 Y80.407 E18.84362
G1 X48.791 Y79.393 E18.89086
G1 X48.808 Y79.139 E18.90272
G1 X48.911 Y78.118 E18.9505
G1 X48.947 Y77.857 E18.96277
G1 X49.12 Y76.848 E19.01044
G1 X49.173 Y76.591 E19.02266
G1 X49.412 Y75.61 E19.06967
G1 X49.481 Y75.363 E19.08161
G1 X49.794 Y74.373 E19.12996
G1 X49.88 Y74.129 E19.14201
G1 X50.249 Y73.19 E19.18899
G1 X50.352 Y72.953 E19.20102
G1 X50.797 Y72.014 E19.24941
G1 X50.916 Y71.784 E19.26146
G1 X51.409 Y70.904 E19.30843
G1 X51.545 Y70.679 E19.32068
G1 X52.107 Y69.821 E19.36843
G1 X52.251 Y69.616 E19.3801
G1 X52.872 Y68.792 E19.42815
G1 X53.044 Y68.581 E19.44082
G1 X53.721 Y67.805 E19.48877
G1 X53.889 Y67.624 E19.50027
G1 X54.602 Y66.907 E19.54736
G1 X54.795 Y66.726 E19.55968
G1 X55.576 Y66.043 E19.60799
G0 F9000 X55.84 Y66.344
G1 F1800 X56.025 Y66.193 E19.61911
G1 X56.83 Y65.583 E19.66614
G1 X57.016 Y65.452 E19.67673
G1 X57.885 Y64.881 E19.72515
G1 X58.081 Y64.761 E19.73585
G1 X58.96 Y64.265 E19.78285
G1 X59.167 Y64.157 E19.79372
G1 X60.1 Y63.712 E19.84185
G1 X60.312 Y63.62 E19.85261
G1 X61.256 Y63.246 E19.89989
G1 X61.474 Y63.168 E19.91068
G1 X62.464 Y62.852 E19.95907
G1 X62.69 Y62.788 E19.97
G1 X63.671 Y62.548 E20.01703
G1 X63.896 Y62.501 E20.02773
G1 X64.908 Y62.325 E20.07556
G1 X65.141 Y62.293 E20.08651
G1 X66.164 Y62.187 E20.1344
G1 X66.392 Y62.171 E20.14505
G1 X67.542 Y62.132 E20.19863
G1 X107.513 Y62.131 E22.05984
G1 X108.033 Y62.171 E22.08413
G1 X108.745 Y62.362 E22.11845
G1 X108.817 Y62.39 E22.12205
G1 X109.287 Y62.616 E22.14634
G1 X109.717 Y62.91 E22.17059
G1 X109.922 Y63.089 E22.18326
G1 X116.574 Y69.383 E22.60968
G1 X120.561 Y73.1 E22.8635
G1 X124.292 Y76.51 E23.09886
G1 X127.633 Y79.483 E23.30711
G1 X128.412 Y80.16 E23.35517
G1 X129.184 Y80.823 E23.40255
G1 X129.912 Y81.441 E23.44702
G1 X130.62 Y82.035 E23.49005
G1 X131.249 Y82.556 E23.52808
G1 X132.507 Y83.574 E23.60344
G1 X133.643 Y84.468 E23.67075
G1 X134.703 Y85.273 E23.73273
G1 X135.209 Y85.647 E23.76203
G1 X136.235 Y86.383 E23.82082
G1 X137.201 Y87.053 E23.87556
G1 X138.157 Y87.687 E23.92898
G1 X139.115 Y88.295 E23.98181
G1 X140.082 Y88.881 E24.03446
G1 X141.077 Y89.461 E24.08809
G1 X142.073 Y90.012 E24.14109
G1 X143.14 Y90.578 E24.19733
G1 X144.288 Y91.16 E24.25727
G1 X145.512 Y91.755 E24.32064
G1 X146.164 Y92.061 E24.35418
G1 X147.593 Y92.711 E24.42728
G1 X148.329 Y93.037 E24.46476
G1 X149.125 Y93.383 E24.50517
G1 X149.976 Y93.745 E24.54824
G1 X150.859 Y94.115 E24.59282
G1 X154.029 Y95.398 E24.75206
G1 X157.954 Y96.919 E24.94806
G1 X162.174 Y98.497 E25.15785
G1 X173.528 Y102.598 E25.71997
G1 X174.003 Y102.812 E25.74423
G1 X174.44 Y103.096 E25.7685
G1 X174.828 Y103.444 E25.79277
G1 X175.16 Y103.848 E25.81712
G1 X175.232 Y103.951 E25.82297
G1 X175.497 Y104.4 E25.84725
G1 X175.69 Y104.884 E25.87151
G1 X175.807 Y105.392 E25.89578
G1 X175.845 Y105.899 E25.91946
G1 X175.845 Y108.884 E26.05845
G1 X181.897 Y108.141 E26.34237
G1 X182.417 Y108.118 E26.36661
G1 X182.935 Y108.174 E26.39087
G1 X183.439 Y108.308 E26.41516
G1 X183.916 Y108.519 E26.43944
G1 X184.355 Y108.799 E26.46369
G1 X184.579 Y108.983 E26.47719
G1 X184.713 Y109.103 E26.48556
G1 X185.074 Y109.48 E26.50987
G1 X185.372 Y109.907 E26.53411
G1 X185.602 Y110.374 E26.55835
G1 X185.758 Y110.872 E26.58265
G1 X185.845 Y111.636 E26.61846
G1 X185.845 Y123.364 E27.16456
G1 X185.805 Y123.884 E27.18885
G1 X185.686 Y124.391 E27.2131
G1 X185.491 Y124.874 E27.23735
G1 X185.225 Y125.322 E27.26161
G1 X184.712 Y125.898 E27.29753
G1 X184.579 Y126.017 E27.30584
G1 X184.165 Y126.334 E27.33012
G1 X183.708 Y126.583 E27.35435
G1 X183.218 Y126.76 E27.37861
G1 X182.706 Y126.86 E27.4029
G1 X182.185 Y126.881 E27.42718
G1 X181.898 Y126.858 E27.44059
G1 X175.845 Y126.116 E27.72455
G1 X175.845 Y129.101 E27.86355
G1 X175.805 Y129.621 E27.88783
G1 X175.686 Y130.128 E27.91208
G1 X175.491 Y130.611 E27.93634
G1 X175.236 Y131.043 E27.95969
G1 X175.165 Y131.145 E27.96548
G1 X174.835 Y131.549 E27.98977
G1 X174.447 Y131.898 E28.01407
G1 X174.011 Y132.183 E28.03833
G1 X173.55 Y132.393 E28.06191
G1 X166.69 Y134.922 E28.40236
G1 X160.775 Y137.153 E28.69673
G1 X156.394 Y138.86 E28.91566
G1 X152.471 Y140.455 E29.11286
G1 X151.517 Y140.855 E29.16102
G1 X149.834 Y141.582 E29.24639
G1 X148.261 Y142.284 E29.3266
G1 X146.928 Y142.899 E29.39496
G1 X145.65 Y143.516 E29.46104
G1 X145.03 Y143.823 E29.49325
G1 X143.951 Y144.377 E29.54973
G1 X142.836 Y144.973 E29.6086
G1 X141.875 Y145.509 E29.65984
G1 X140.833 Y146.117 E29.71602
G1 X139.891 Y146.688 E29.76731
G1 X138.926 Y147.298 E29.82047
G1 X137.978 Y147.924 E29.87337
G1 X137.007 Y148.59 E29.92819
G1 X135.947 Y149.344 E29.98877
G1 X135.422 Y149.727 E30.01903
G1 X134.356 Y150.526 E30.08106
G1 X133.762 Y150.981 E30.1159
G1 X132.544 Y151.934 E30.18791
G1 X131.912 Y152.44 E30.22561
G1 X130.546 Y153.553 E30.30766
G1 X129.786 Y154.184 E30.35365
G1 X127.287 Y156.3 E30.50613
G1 X123.553 Y159.559 E30.73691
G1 X119.38 Y163.286 E30.99744
G1 X109.886 Y171.943 E31.59571
G1 X109.475 Y172.264 E31.61999
G1 X108.858 Y172.588 E31.65244
G1 X108.788 Y172.616 E31.65596
G1 X108.29 Y172.772 E31.68026
G1 X107.526 Y172.859 E31.71606
G1 X67.446 Y172.867 E33.58235
G1 X66.435 Y172.833 E33.62946
G1 X66.207 Y172.818 E33.6401
G1 X65.187 Y172.715 E33.68783
G1 X64.953 Y172.683 E33.69883
G1 X63.94 Y172.509 E33.74669
G1 X63.715 Y172.462 E33.75739
G1 X62.733 Y172.224 E33.80444
G1 X62.511 Y172.162 E33.81518
G1 X61.519 Y171.849 E33.86361
G1 X61.294 Y171.77 E33.87472
G1 X60.354 Y171.399 E33.92177
G1 X60.146 Y171.309 E33.93233
G1 X59.209 Y170.865 E33.98061
G1 X59.003 Y170.758 E33.99142
G1 X58.111 Y170.258 E34.03903
G1 X57.916 Y170.14 E34.04964
G1 X57.068 Y169.587 E34.09679
G1 X56.874 Y169.451 E34.10782
G1 X56.045 Y168.824 E34.15622
G1 X55.864 Y168.677 E34.16707
G1 X55.1 Y168.012 E34.21424
G1 X54.929 Y167.853 E34.22511
G1 X54.196 Y167.121 E34.27335
G1 X54.041 Y166.955 E34.28392
G1 X53.372 Y166.191 E34.33121
G1 X53.218 Y166.001 E34.3426
G1 X52.602 Y165.186 E34.39017
G1 X52.474 Y165.006 E34.40045
G1 X51.905 Y164.142 E34.44862
G1 X51.784 Y163.943 E34.45947
G1 X51.288 Y163.064 E34.50647
G1 X51.18 Y162.856 E34.51738
G1 X50.733 Y161.918 E34.56576
G1 X50.639 Y161.703 E34.57669
G1 X50.268 Y160.763 E34.62374
G1 X50.193 Y160.551 E34.63422
G1 X49.877 Y159.563 E34.68252
G1 X49.813 Y159.337 E34.69345
G1 X49.571 Y158.351 E34.74073
G1 X49.524 Y158.125 E34.75148
G1 X49.348 Y157.116 E34.79917
G1 X49.315 Y156.877 E34.8104
G1 X49.211 Y155.857 E34.85815
G1 X49.195 Y155.635 E34.86851
G1 X49.156 Y154.492 E34.92176
G1 X49.155 Y153.437 E34.97089
G1 X49.155 Y80.534 E38.36556
G1 X49.157 Y80.42 E38.37087
G1 X49.191 Y79.406 E38.41811
G1 X49.206 Y79.179 E38.4287
G1 X49.309 Y78.158 E38.47649
G1 X49.341 Y77.924 E38.48748
G1 X49.514 Y76.915 E38.53515
G1 X49.562 Y76.685 E38.54609
G1 X49.801 Y75.704 E38.59311
G1 X49.862 Y75.484 E38.60374
G1 X50.175 Y74.494 E38.65209
G1 X50.253 Y74.275 E38.66291
G1 X50.622 Y73.336 E38.70989
G1 X50.714 Y73.124 E38.72065
G1 X51.159 Y72.185 E38.76904
G1 X51.265 Y71.979 E38.77982
G1 X51.758 Y71.099 E38.82679
G1 X51.88 Y70.898 E38.83774
G1 X52.442 Y70.04 E38.8855
G1 X52.571 Y69.857 E38.89593
G1 X53.192 Y69.033 E38.94397
G1 X53.345 Y68.844 E38.9553
G1 X54.022 Y68.068 E39.00325
G1 X54.173 Y67.906 E39.01356
G1 X54.886 Y67.189 E39.06064
G1 X55.059 Y67.027 E39.07168
G1 X55.84 Y66.344 E39.11999
G0 F9000 X56.103 Y66.645
G1 F1800 X56.266 Y66.512 E39.12979
G1 X57.071 Y65.902 E39.17682
G1 X57.236 Y65.786 E39.18621
G1 X58.105 Y65.215 E39.23463
G1 X58.278 Y65.109 E39.24407
G1 X59.157 Y64.613 E39.29107
G1 X59.34 Y64.518 E39.30067
G1 X60.273 Y64.073 E39.34881
G1 X60.459 Y63.992 E39.35825
G1 X61.403 Y63.618 E39.40553
G1 X61.596 Y63.549 E39.41508
G1 X62.586 Y63.233 E39.46347
G1 X62.785 Y63.177 E39.47309
G1 X63.766 Y62.937 E39.52012
G1 X63.965 Y62.895 E39.52959
G1 X64.977 Y62.719 E39.57742
G1 X65.182 Y62.691 E39.58705
G1 X66.205 Y62.585 E39.63494
G1 X66.406 Y62.571 E39.64433
G1 X67.542 Y62.532 E39.69725
G1 X107.513 Y62.531 E41.55847
G1 X108.001 Y62.571 E41.58127
G1 X108.6 Y62.735 E41.61019
G1 X108.672 Y62.763 E41.61379
G1 X109.113 Y62.977 E41.63661
G1 X109.647 Y63.38 E41.66776
G1 X116.283 Y69.659 E42.09316
G1 X120.313 Y73.416 E42.34971
G1 X124.009 Y76.794 E42.58287
G1 X127.341 Y79.758 E42.79052
G1 X128.152 Y80.463 E42.84056
G1 X129.655 Y81.748 E42.93264
G1 X130.348 Y82.329 E42.97475
G1 X131.022 Y82.887 E43.01549
G1 X132.258 Y83.888 E43.08955
G1 X133.379 Y84.769 E43.15594
G1 X134.498 Y85.619 E43.22137
G1 X134.976 Y85.972 E43.24904
G1 X136.019 Y86.721 E43.30883
G1 X136.974 Y87.382 E43.36292
G1 X137.933 Y88.019 E43.41652
G1 X138.915 Y88.641 E43.47065
G1 X139.848 Y89.208 E43.52149
G1 X140.875 Y89.806 E43.57683
G1 X141.866 Y90.355 E43.62958
G1 X142.958 Y90.934 E43.68713
G1 X143.552 Y91.238 E43.7182
G1 X144.719 Y91.818 E43.77889
G1 X145.368 Y92.129 E43.8124
G1 X146.02 Y92.435 E43.84593
G1 X147.408 Y93.067 E43.91695
G1 X148.968 Y93.751 E43.99627
G1 X149.822 Y94.115 E44.03949
G1 X150.726 Y94.493 E44.08512
G1 X153.879 Y95.769 E44.2435
G1 X157.814 Y97.294 E44.44001
G1 X162.002 Y98.86 E44.64821
G1 X173.392 Y102.974 E45.21211
G1 X173.837 Y103.178 E45.23491
G1 X174.244 Y103.451 E45.25773
G1 X174.6 Y103.786 E45.28049
G1 X174.832 Y104.077 E45.29782
G1 X174.904 Y104.18 E45.30367
G1 X175.151 Y104.603 E45.32648
G1 X175.325 Y105.06 E45.34925
G1 X175.423 Y105.54 E45.37206
G1 X175.445 Y105.899 E45.38881
G1 X175.445 Y109.336 E45.54885
G1 X181.945 Y108.538 E45.85379
G1 X182.434 Y108.519 E45.87658
G1 X182.92 Y108.579 E45.89938
