;FLAVOR:Marlin
;TIME:11383
;Filament used: 17.6783m
;Layer height: 0.28
;MINX:43.755
;MINY:73.195
;MINZ:0.28
;MAXX:191.245
;MAXY:184.732
;MAXZ:75.88
;Generated with Cura_SteamEngine 4.5.0
M140 S50
M105
M190 S50
M104 S200
M105
M109 S200
M82 ;absolute extrusion mode
; Ender 3 Custom Start G-code
G92 E0 ; Reset Extruder
G28 ; Home all axes
G1 Z2.0 F3000 ; Move Z Axis up little to prevent scratching of Heat Bed
G1 X0.1 Y20 Z0.3 F5000.0 ; Move to start position
G1 X0.1 Y200.0 Z0.3 F1500.0 E15 ; Draw the first line
G1 X0.4 Y200.0 Z0.3 F5000.0 ; Move to side a little
G1 X0.4 Y20 Z0.3 F1500.0 E30 ; Draw the second line
G92 E0 ; Reset Extruder
G1 Z2.0 F3000 ; Move Z Axis up little to prevent scratching of Heat Bed
G1 X5 Y20 Z0.3 F5000.0 ; Move over to prevent blob squish
G92 E0
G92 E0
G1 F2700 E-5
;LAYER_COUNT:275
;LAYER:0
M107
G0 F9000 X51.794 Y76.584 Z0.28
;TYPE:SKIRT
G1 F2700 E0
G1 F1800 X52.663 Y76.012 E0.04844
G1 X52.885 Y75.877 E0.06054
G1 X53.764 Y75.381 E0.10754
G1 X53.995 Y75.26 E0.11968
G1 X54.928 Y74.815 E0.16781
G1 X55.164 Y74.712 E0.1798
G1 X56.108 Y74.338 E0.22708
G1 X56.356 Y74.25 E0.23934
G1 X57.346 Y73.935 E0.28771
G1 X57.591 Y73.866 E0.29957
G1 X58.576 Y73.624 E0.3468
G1 X58.833 Y73.57 E0.35902
G1 X59.841 Y73.395 E0.40666
G1 X60.099 Y73.359 E0.41879
G1 X61.122 Y73.253 E0.46668
G1 X61.376 Y73.236 E0.47854
G1 X62.557 Y73.195 E0.53356
G1 X102.522 Y73.195 E2.3945
G1 X103.072 Y73.235 E2.42018
G1 X103.61 Y73.354 E2.44584
G1 X104.125 Y73.55 E2.47149
G1 X104.704 Y73.884 E2.50262
G1 X117.09 Y82.569 E3.20702
G1 X123.277 Y86.858 E3.55757
G1 X128.915 Y90.688 E3.87494
G1 X131.411 Y92.342 E4.01437
G1 X133.128 Y93.464 E4.10988
G1 X134.734 Y94.494 E4.19872
G1 X136.154 Y95.387 E4.27682
G1 X137.494 Y96.211 E4.35007
G1 X139.418 Y97.361 E4.45445
G1 X140.587 Y98.036 E4.5173
G1 X141.728 Y98.678 E4.57827
G1 X142.829 Y99.279 E4.63667
G1 X145.112 Y100.472 E4.75662
G1 X146.313 Y101.07 E4.81909
G1 X147.466 Y101.625 E4.87868
G1 X148.763 Y102.228 E4.94528
G1 X150.063 Y102.815 E5.0117
G1 X151.499 Y103.442 E5.08466
G1 X153.085 Y104.114 E5.16487
G1 X154.791 Y104.817 E5.25078
G1 X156.765 Y105.609 E5.34982
G1 X160.176 Y106.937 E5.52027
G1 X165.437 Y108.912 E5.78193
G1 X178.663 Y113.688 E6.43672
G1 X179.167 Y113.912 E6.4624
G1 X179.632 Y114.207 E6.48804
G1 X180.051 Y114.566 E6.51373
G1 X180.477 Y115.071 E6.5445
G1 X180.549 Y115.173 E6.55031
G1 X180.834 Y115.645 E6.57598
G1 X181.047 Y116.153 E6.60163
G1 X181.184 Y116.686 E6.62726
G1 X181.245 Y117.364 E6.65896
G1 X181.245 Y119.897 E6.7769
G1 X186.848 Y119.209 E7.03976
G1 X187.398 Y119.182 E7.0654
G1 X187.947 Y119.235 E7.09109
G1 X188.482 Y119.366 E7.11673
G1 X188.993 Y119.573 E7.14241
G1 X189.468 Y119.852 E7.16806
G1 X189.846 Y120.15 E7.19047
G1 X189.98 Y120.27 E7.19885
G1 X190.363 Y120.667 E7.22453
G1 X190.684 Y121.114 E7.25016
G1 X190.937 Y121.603 E7.2758
G1 X191.117 Y122.124 E7.30146
G1 X191.22 Y122.666 E7.32715
G1 X191.245 Y123.101 E7.34744
G1 X191.245 Y134.829 E7.89355
G1 X191.205 Y135.379 E7.91922
G1 X191.086 Y135.917 E7.94488
G1 X190.89 Y136.432 E7.97054
G1 X190.622 Y136.913 E7.99618
G1 X190.288 Y137.351 E8.02183
G1 X189.979 Y137.661 E8.04221
G1 X189.846 Y137.78 E8.05052
G1 X189.41 Y138.117 E8.07618
G1 X188.929 Y138.387 E8.10186
G1 X188.415 Y138.584 E8.12749
G1 X187.878 Y138.706 E8.15314
G1 X187.328 Y138.748 E8.17882
G1 X186.85 Y138.72 E8.20112
G1 X181.245 Y138.033 E8.46406
G1 X181.245 Y140.566 E8.58201
G1 X181.205 Y141.116 E8.60769
G1 X181.086 Y141.654 E8.63334
G1 X180.89 Y142.169 E8.659
G1 X180.564 Y142.737 E8.6895
G1 X180.493 Y142.839 E8.69529
G1 X180.146 Y143.267 E8.72094
G1 X179.741 Y143.641 E8.74661
G1 X179.286 Y143.952 E8.77227
G1 X178.689 Y144.233 E8.803
G1 X169.625 Y147.577 E9.25286
G1 X162.707 Y150.198 E9.59734
G1 X158.422 Y151.88 E9.81169
G1 X156.378 Y152.707 E9.91436
G1 X154.584 Y153.452 E10.00481
G1 X153.001 Y154.124 E10.08489
G1 X151.492 Y154.784 E10.16158
G1 X150.167 Y155.38 E10.22923
G1 X149.497 Y155.691 E10.26363
G1 X148.282 Y156.263 E10.32616
G1 X147.05 Y156.86 E10.38991
G1 X145.955 Y157.407 E10.4469
G1 X143.653 Y158.61 E10.56785
G1 X142.491 Y159.243 E10.62947
G1 X141.369 Y159.872 E10.68936
G1 X140.134 Y160.58 E10.75565
G1 X138.221 Y161.713 E10.85917
G1 X136.135 Y162.988 E10.97301
G1 X134.633 Y163.928 E11.05552
G1 X132.962 Y164.991 E11.14774
G1 X127.756 Y168.387 E11.43717
G1 X121.249 Y172.746 E11.80187
G1 X104.74 Y184.042 E12.73332
G1 X104.264 Y184.32 E12.75899
G1 X103.753 Y184.525 E12.78463
G1 X103.217 Y184.655 E12.81031
G1 X102.597 Y184.706 E12.83927
G1 X62.43 Y184.732 E14.70962
G1 X61.404 Y184.697 E14.75742
G1 X61.15 Y184.68 E14.76928
G1 X60.145 Y184.578 E14.81631
G1 X59.886 Y184.542 E14.82849
G1 X58.873 Y184.368 E14.87635
G1 X58.617 Y184.315 E14.88852
G1 X57.635 Y184.076 E14.93558
G1 X57.393 Y184.009 E14.94728
G1 X56.402 Y183.697 E14.99565
G1 X56.149 Y183.607 E15.00816
G1 X55.208 Y183.236 E15.05526
G1 X54.975 Y183.135 E15.06708
G1 X54.038 Y182.691 E15.11536
G1 X53.807 Y182.572 E15.12746
G1 X52.915 Y182.072 E15.17508
G1 X52.692 Y181.937 E15.18722
G1 X51.844 Y181.382 E15.23441
G1 X51.635 Y181.235 E15.24631
G1 X50.806 Y180.609 E15.29468
G1 X50.601 Y180.442 E15.30699
G1 X49.837 Y179.777 E15.35415
G1 X49.649 Y179.602 E15.36611
G1 X48.926 Y178.881 E15.41366
G1 X48.749 Y178.692 E15.42572
G1 X48.066 Y177.911 E15.47403
G1 X47.897 Y177.703 E15.48651
G1 X47.285 Y176.895 E15.5337
G1 X47.139 Y176.689 E15.54546
G1 X46.57 Y175.824 E15.59367
G1 X46.436 Y175.604 E15.60567
G1 X45.933 Y174.713 E15.65331
G1 X45.812 Y174.481 E15.66549
G1 X45.376 Y173.567 E15.71265
G1 X45.271 Y173.325 E15.72493
G1 X44.896 Y172.374 E15.77253
G1 X44.812 Y172.138 E15.7842
G1 X44.496 Y171.15 E15.8325
G1 X44.425 Y170.898 E15.84469
G1 X44.183 Y169.912 E15.89196
G1 X44.129 Y169.658 E15.90406
G1 X43.953 Y168.648 E15.95179
G1 X43.917 Y168.381 E15.96434
G1 X43.813 Y167.361 E16.01208
G1 X43.796 Y167.115 E16.02356
G1 X43.755 Y165.939 E16.07836
G1 X43.755 Y91.998 E19.52136
G1 X43.757 Y91.869 E19.52737
G1 X43.792 Y90.841 E19.57526
G1 X43.809 Y90.587 E19.58712
G1 X43.911 Y89.581 E19.6342
G1 X43.947 Y89.322 E19.64638
G1 X44.12 Y88.313 E19.69404
G1 X44.173 Y88.056 E19.70626
G1 X44.412 Y87.074 E19.75332
G1 X44.481 Y86.827 E19.76527
G1 X44.794 Y85.837 E19.81361
G1 X44.88 Y85.593 E19.82566
G1 X45.249 Y84.654 E19.87264
G1 X45.352 Y84.417 E19.88467
G1 X45.797 Y83.478 E19.93306
G1 X45.916 Y83.248 E19.94512
G1 X46.409 Y82.368 E19.99208
G1 X46.545 Y82.143 E20.00433
G1 X47.107 Y81.285 E20.05209
G1 X47.253 Y81.078 E20.06388
G1 X47.878 Y80.25 E20.11219
G1 X48.043 Y80.047 E20.12437
G1 X48.706 Y79.284 E20.17144
G1 X48.883 Y79.093 E20.18356
G1 X49.606 Y78.368 E20.23124
G1 X49.795 Y78.191 E20.2433
G1 X50.576 Y77.508 E20.29161
G1 X50.783 Y77.339 E20.30405
G1 X51.588 Y76.729 E20.35108
G1 X51.794 Y76.584 E20.36281
G0 F9000 X52.014 Y76.918
G1 F1800 X52.883 Y76.346 E20.41125
G1 X53.081 Y76.225 E20.42206
G1 X53.96 Y75.729 E20.46906
G1 X54.167 Y75.621 E20.47993
G1 X55.1 Y75.176 E20.52806
G1 X55.312 Y75.084 E20.53882
G1 X56.256 Y74.71 E20.5861
G1 X56.477 Y74.631 E20.59703
G1 X57.467 Y74.316 E20.64541
G1 X57.687 Y74.254 E20.65605
G1 X58.672 Y74.012 E20.70328
G1 X58.901 Y73.964 E20.71417
G1 X59.909 Y73.789 E20.76181
G1 X60.141 Y73.757 E20.77272
G1 X61.164 Y73.651 E20.82061
G1 X61.39 Y73.635 E20.83116
G1 X62.557 Y73.595 E20.88553
G1 X102.522 Y73.595 E22.74647
G1 X103.042 Y73.635 E22.77075
G1 X103.549 Y73.754 E22.795
G1 X104.032 Y73.949 E22.81926
G1 X104.474 Y74.211 E22.84318
G1 X116.877 Y82.908 E23.54855
G1 X123.023 Y87.169 E23.89679
G1 X128.719 Y91.039 E24.21744
G1 X131.19 Y92.676 E24.35546
G1 X132.913 Y93.802 E24.4513
G1 X134.519 Y94.831 E24.54012
G1 X135.945 Y95.728 E24.61856
G1 X137.289 Y96.554 E24.69202
G1 X139.219 Y97.707 E24.79671
G1 X140.366 Y98.37 E24.8584
G1 X141.547 Y99.035 E24.92151
G1 X142.684 Y99.655 E24.98181
G1 X144.914 Y100.82 E25.09896
G1 X146.135 Y101.428 E25.16248
G1 X147.338 Y102.007 E25.22465
G1 X148.56 Y102.575 E25.28739
G1 X149.942 Y103.199 E25.358
G1 X151.343 Y103.811 E25.42919
G1 X152.943 Y104.488 E25.51009
G1 X154.671 Y105.2 E25.59711
G1 X156.584 Y105.968 E25.6931
G1 X160.035 Y107.312 E25.86555
G1 X165.256 Y109.272 E26.12523
G1 X178.528 Y114.064 E26.78228
G1 X179.003 Y114.278 E26.80654
G1 X179.44 Y114.562 E26.8308
G1 X179.828 Y114.91 E26.85507
G1 X180.151 Y115.301 E26.87869
G1 X180.223 Y115.403 E26.8845
G1 X180.49 Y115.851 E26.90879
G1 X180.685 Y116.334 E26.93304
G1 X180.805 Y116.841 E26.9573
G1 X180.845 Y117.364 E26.98173
G1 X180.845 Y120.349 E27.12072
G1 X186.897 Y119.606 E27.40464
G1 X187.418 Y119.583 E27.42893
G1 X187.936 Y119.639 E27.45319
G1 X188.439 Y119.774 E27.47744
G1 X188.916 Y119.984 E27.50171
G1 X189.355 Y120.264 E27.52595
G1 X189.579 Y120.448 E27.53945
G1 X189.713 Y120.568 E27.54782
G1 X190.074 Y120.945 E27.57213
G1 X190.372 Y121.372 E27.59638
G1 X190.602 Y121.839 E27.62062
G1 X190.758 Y122.337 E27.64492
G1 X190.845 Y123.101 E27.68072
G1 X190.845 Y134.829 E28.22683
G1 X190.805 Y135.349 E28.25111
G1 X190.686 Y135.856 E28.27536
G1 X190.491 Y136.339 E28.29961
G1 X190.225 Y136.787 E28.32388
G1 X189.712 Y137.363 E28.35979
G1 X189.579 Y137.482 E28.3681
G1 X189.165 Y137.799 E28.39238
G1 X188.708 Y138.048 E28.41661
G1 X188.218 Y138.225 E28.44087
G1 X187.706 Y138.325 E28.46517
G1 X187.185 Y138.346 E28.48945
G1 X186.898 Y138.323 E28.50285
G1 X180.845 Y137.581 E28.78681
G1 X180.845 Y140.566 E28.92581
G1 X180.805 Y141.086 E28.95009
G1 X180.686 Y141.593 E28.97434
G1 X180.491 Y142.076 E28.9986
G1 X180.236 Y142.508 E29.02196
G1 X180.165 Y142.61 E29.02774
G1 X179.835 Y143.014 E29.05203
G1 X179.447 Y143.363 E29.07633
G1 X179.011 Y143.648 E29.10059
G1 X178.551 Y143.858 E29.12413
G1 X169.456 Y147.213 E29.57553
G1 X162.603 Y149.809 E29.91676
G1 X158.272 Y151.509 E30.13341
G1 X156.228 Y152.336 E30.23608
G1 X154.43 Y153.083 E30.32675
G1 X152.806 Y153.772 E30.40889
G1 X151.366 Y154.402 E30.48208
G1 X149.999 Y155.018 E30.5519
G1 X149.329 Y155.328 E30.58627
G1 X148.108 Y155.903 E30.64912
G1 X146.913 Y156.482 E30.71095
G1 X145.714 Y157.081 E30.77336
G1 X143.445 Y158.267 E30.89257
G1 X142.337 Y158.87 E30.95131
G1 X141.142 Y159.541 E31.01513
G1 X139.935 Y160.233 E31.07991
G1 X138.017 Y161.369 E31.18371
G1 X135.926 Y162.647 E31.29782
G1 X134.418 Y163.59 E31.38064
G1 X132.744 Y164.656 E31.47305
G1 X127.538 Y168.052 E31.76248
G1 X121.026 Y172.414 E32.12745
G1 X104.514 Y183.712 E33.05907
G1 X104.063 Y183.972 E33.08331
G1 X103.577 Y184.161 E33.10759
G1 X103.068 Y184.273 E33.13186
G1 X102.596 Y184.306 E33.15389
G1 X62.444 Y184.332 E35.02354
G1 X61.418 Y184.297 E35.07134
G1 X61.191 Y184.282 E35.08194
G1 X60.186 Y184.18 E35.12897
G1 X59.953 Y184.148 E35.13992
G1 X58.94 Y183.974 E35.18779
G1 X58.712 Y183.927 E35.19863
G1 X57.73 Y183.688 E35.24569
G1 X57.513 Y183.627 E35.25618
G1 X56.522 Y183.315 E35.30456
G1 X56.296 Y183.235 E35.31572
G1 X55.355 Y182.864 E35.36282
G1 X55.146 Y182.774 E35.37342
G1 X54.209 Y182.33 E35.4217
G1 X54.003 Y182.223 E35.43251
G1 X53.111 Y181.723 E35.48012
G1 X52.911 Y181.602 E35.49101
G1 X52.063 Y181.047 E35.5382
G1 X51.876 Y180.915 E35.54886
G1 X51.047 Y180.289 E35.59723
G1 X50.864 Y180.141 E35.60819
G1 X50.1 Y179.476 E35.65535
G1 X49.931 Y179.318 E35.66613
G1 X49.208 Y178.597 E35.71367
G1 X49.05 Y178.428 E35.72444
G1 X48.367 Y177.647 E35.77275
G1 X48.216 Y177.462 E35.78387
G1 X47.604 Y176.654 E35.83107
G1 X47.473 Y176.47 E35.84159
G1 X46.904 Y175.605 E35.8898
G1 X46.784 Y175.407 E35.90058
G1 X46.281 Y174.516 E35.94823
G1 X46.173 Y174.309 E35.9591
G1 X45.737 Y173.395 E36.00625
G1 X45.643 Y173.178 E36.01726
G1 X45.268 Y172.227 E36.06486
G1 X45.193 Y172.016 E36.07529
G1 X44.877 Y171.028 E36.12359
G1 X44.813 Y170.802 E36.13453
G1 X44.571 Y169.816 E36.1818
G1 X44.523 Y169.59 E36.19256
G1 X44.347 Y168.58 E36.2403
G1 X44.315 Y168.341 E36.25153
G1 X44.211 Y167.321 E36.29927
G1 X44.195 Y167.101 E36.30954
G1 X44.155 Y165.939 E36.36368
G1 X44.155 Y91.998 E39.80668
G1 X44.157 Y91.882 E39.81209
G1 X44.192 Y90.854 E39.85998
G1 X44.207 Y90.627 E39.87058
G1 X44.309 Y89.621 E39.91766
G1 X44.341 Y89.389 E39.92856
G1 X44.514 Y88.38 E39.97623
G1 X44.561 Y88.151 E39.98712
G1 X44.8 Y87.169 E40.03418
G1 X44.862 Y86.948 E40.04487
G1 X45.175 Y85.958 E40.09322
G1 X45.253 Y85.739 E40.10404
G1 X45.622 Y84.8 E40.15102
G1 X45.714 Y84.588 E40.16178
G1 X46.159 Y83.649 E40.21017
G1 X46.265 Y83.443 E40.22095
G1 X46.758 Y82.563 E40.26792
G1 X46.88 Y82.362 E40.27887
G1 X47.442 Y81.504 E40.32663
G1 X47.572 Y81.319 E40.33716
G1 X48.197 Y80.491 E40.38546
G1 X48.345 Y80.309 E40.39639
G1 X49.008 Y79.546 E40.44345
G1 X49.167 Y79.375 E40.45433
G1 X49.89 Y78.65 E40.502
G1 X50.059 Y78.492 E40.51278
G1 X50.84 Y77.809 E40.56109
G1 X51.025 Y77.658 E40.57221
G1 X51.83 Y77.048 E40.61924
G1 X52.014 Y76.918 E40.62973
G0 F9000 X52.234 Y77.252
G1 F1800 X53.103 Y76.68 E40.67817
G1 X53.278 Y76.573 E40.68772
G1 X54.157 Y76.077 E40.73472
G1 X54.34 Y75.982 E40.74432
G1 X55.273 Y75.537 E40.79245
G1 X55.459 Y75.456 E40.8019
G1 X56.403 Y75.082 E40.84918
G1 X56.598 Y75.012 E40.85883
G1 X57.588 Y74.697 E40.9072
G1 X57.782 Y74.643 E40.91658
G1 X58.767 Y74.401 E40.96381
G1 X58.97 Y74.358 E40.97347
G1 X59.978 Y74.183 E41.02111
G1 X60.182 Y74.155 E41.0307
G1 X61.205 Y74.049 E41.07859
G1 X61.405 Y74.035 E41.08793
G1 X62.557 Y73.995 E41.1416
G1 X102.522 Y73.995 E43.00254
G1 X103.01 Y74.035 E43.02534
G1 X103.485 Y74.154 E43.04814
G1 X103.934 Y74.348 E43.07091
G1 X104.244 Y74.539 E43.08787
G1 X116.634 Y83.227 E43.7925
G1 X122.798 Y87.499 E44.14172
G1 X128.502 Y91.374 E44.46281
G1 X130.953 Y92.998 E44.59972
G1 X132.718 Y94.151 E44.69789
G1 X134.28 Y95.153 E44.7843
G1 X135.76 Y96.083 E44.86569
G1 X137.116 Y96.917 E44.93982
G1 X138.984 Y98.033 E45.04114
G1 X140.199 Y98.735 E45.10648
G1 X141.326 Y99.37 E45.16672
G1 X142.486 Y100.002 E45.22823
G1 X144.783 Y101.203 E45.34892
G1 X145.92 Y101.769 E45.40807
G1 X147.149 Y102.36 E45.47157
G1 X148.396 Y102.94 E45.5356
G1 X149.778 Y103.564 E45.60621
G1 X151.186 Y104.179 E45.67776
G1 X152.759 Y104.845 E45.7573
G1 X154.519 Y105.57 E45.84593
G1 X156.439 Y106.341 E45.94227
G1 X159.929 Y107.699 E46.11665
G1 X165.12 Y109.648 E46.37484
G1 X178.392 Y114.44 E47.03189
G1 X178.837 Y114.644 E47.05468
G1 X179.243 Y114.916 E47.07744
G1 X179.6 Y115.252 E47.10027
G1 X179.824 Y115.532 E47.11696
G1 X179.896 Y115.634 E47.12278
G1 X180.145 Y116.056 E47.14559
G1 X180.321 Y116.512 E47.16835
G1 X180.422 Y116.991 E47.19115
G1 X180.445 Y117.364 E47.20855
G1 X180.445 Y120.801 E47.36859
G1 X186.946 Y120.003 E47.67358
G1 X187.435 Y119.984 E47.69636
G1 X187.92 Y120.044 E47.71912
G1 X188.39 Y120.182 E47.74193
G1 X188.831 Y120.395 E47.76473
G1 X189.312 Y120.746 E47.79246
G1 X189.446 Y120.866 E47.80084
G1 X189.783 Y121.221 E47.82363
G1 X190.058 Y121.627 E47.84646
G1 X190.263 Y122.071 E47.86923
G1 X190.393 Y122.543 E47.89203
G1 X190.445 Y123.101 E47.91813
G1 X190.445 Y134.829 E48.46423
G1 X190.405 Y135.317 E48.48703
G1 X190.286 Y135.792 E48.50983
G1 X190.092 Y136.241 E48.53261
G1 X189.827 Y136.653 E48.55542
G1 X189.445 Y137.065 E48.58158
G1 X189.312 Y137.184 E48.58989
G1 X188.922 Y137.479 E48.61266
G1 X188.489 Y137.707 E48.63545
G1 X188.025 Y137.862 E48.65823
G1 X187.541 Y137.939 E48.68105
G1 X186.947 Y137.926 E48.70871
G1 X180.445 Y137.129 E49.01374
G1 X180.445 Y140.566 E49.17378
G1 X180.405 Y141.054 E49.19658
G1 X180.286 Y141.529 E49.21938
G1 X180.092 Y141.978 E49.24216
G1 X179.907 Y142.28 E49.25865
G1 X179.836 Y142.382 E49.26443
G1 X179.525 Y142.759 E49.28719
G1 X179.156 Y143.081 E49.30999
G1 X178.74 Y143.339 E49.33279
G1 X178.412 Y143.483 E49.34947
G1 X169.317 Y146.838 E49.80087
G1 X162.457 Y149.437 E50.14245
G1 X158.093 Y151.15 E50.36075
G1 X156.078 Y151.965 E50.46196
G1 X154.297 Y152.705 E50.55177
G1 X152.68 Y153.391 E50.63356
G1 X151.171 Y154.051 E50.71025
G1 X149.831 Y154.655 E50.77869
G1 X149.161 Y154.965 E50.81307
G1 X147.933 Y155.543 E50.87627
G1 X146.734 Y156.124 E50.93831
G1 X145.562 Y156.71 E50.99932
G1 X143.26 Y157.913 E51.12027
G1 X142.141 Y158.522 E51.17959
G1 X140.971 Y159.178 E51.24205
G1 X139.736 Y159.886 E51.30833
G1 X137.849 Y161.003 E51.41044
G1 X135.717 Y162.306 E51.52679
G1 X134.184 Y163.265 E51.61099
